;FLAVOR:Marlin
;TIME:11776
;Filament used: 9.91244m
;Layer height: 0.15
;MINX:71.8
;MINY:66.922
;MINZ:0.3
;MAXX:148.2
;MAXY:153.078
;MAXZ:30
;Generated with Cura_SteamEngine 4.6.1
M140 S60
M105
M190 S60
M104 S200
M105
M109 S200
M82 ;absolute extrusion mode
G21 ;metric values
G90 ;absolute positioning
M82 ;set extruder to absolute mode
M107 ;start with the fan off
G28 X0 Y0 ;move X/Y to min endstops
G28 Z0 ;move Z to min endstops
G1 Z15.0 F9000 ;move the platform down 15mm
G92 E0 ;zero the extruded length
G1 F200 E3 ;extrude 3mm of feed stock
G92 E0 ;zero the extruded length again
G1 F9000
;Put printing message on LCD screen
M117 Printing...
G92 E0
G92 E0
G1 F1500 E-6.5
;LAYER_COUNT:199
;LAYER:0
M107
G0 F3600 X140.858 Y66.989 Z0.3
;TYPE:SKIRT
G1 F1500 E0
G1 F1650 X141.475 Y67.108 E0.03135
G1 X142.107 Y67.299 E0.06429
G1 X142.655 Y67.529 E0.09394
G1 X143.227 Y67.841 E0.12645
G1 X143.743 Y68.195 E0.15766
G1 X144.242 Y68.619 E0.19033
G1 X144.642 Y69.036 E0.21916
G1 X144.94 Y69.395 E0.24244
G1 X145.318 Y69.959 E0.27631
G1 X145.491 Y70.268 E0.29398
G1 X145.769 Y70.902 E0.32852
G1 X145.928 Y71.373 E0.35332
G1 X146.058 Y71.929 E0.3818
G1 X146.146 Y72.551 E0.41315
G1 X146.177 Y72.941 E0.43266
G1 X146.193 Y73.822 E0.47662
G1 X146.198 Y94.523 E1.5094
G1 X146.239 Y97.322 E1.64906
G1 X146.354 Y100.038 E1.78468
G1 X146.548 Y102.781 E1.92187
G1 X146.818 Y105.486 E2.0575
G1 X147.168 Y108.217 E2.19486
G1 X147.594 Y110.925 E2.33163
G1 X148.025 Y113.312 E2.45264
G1 X148.132 Y114.165 E2.49553
G1 X148.185 Y114.769 E2.52578
G1 X148.198 Y115.399 E2.55722
G1 X148.2 Y144.202 E3.9942
G1 X148.19 Y144.943 E4.03118
G1 X148.151 Y145.534 E4.06072
G1 X148.071 Y146.239 E4.09612
G1 X147.954 Y146.805 E4.12496
G1 X147.729 Y147.548 E4.16369
G1 X147.613 Y147.896 E4.18199
G1 X147.385 Y148.415 E4.21027
G1 X147.001 Y149.113 E4.25002
G1 X146.815 Y149.428 E4.26827
G1 X146.489 Y149.881 E4.29611
G1 X146.001 Y150.446 E4.33336
G1 X145.746 Y150.726 E4.35225
G1 X145.32 Y151.115 E4.38103
G1 X144.706 Y151.581 E4.41949
G1 X144.39 Y151.806 E4.43884
G1 X143.911 Y152.084 E4.46647
G1 X143.17 Y152.433 E4.50734
G1 X142.856 Y152.57 E4.52443
G1 X142.314 Y152.748 E4.55289
G1 X141.577 Y152.919 E4.59064
G1 X141.203 Y152.995 E4.60968
G1 X140.641 Y153.056 E4.63788
G1 X139.574 Y153.077 E4.69112
G1 X80.139 Y153.078 E7.65635
G1 X79.493 Y153.069 E7.68858
G1 X78.934 Y153.012 E7.71661
G1 X78.174 Y152.866 E7.75522
G1 X77.801 Y152.783 E7.77429
G1 X77.267 Y152.611 E7.80227
G1 X76.562 Y152.314 E7.84044
G1 X76.223 Y152.161 E7.859
G1 X75.723 Y151.875 E7.88773
G1 X75.077 Y151.424 E7.92704
G1 X74.796 Y151.217 E7.94445
G1 X74.369 Y150.834 E7.97307
G1 X73.837 Y150.265 E8.01193
G1 X73.586 Y149.98 E8.03088
G1 X73.262 Y149.537 E8.05826
G1 X72.871 Y148.891 E8.09593
G1 X72.682 Y148.557 E8.11508
G1 X72.449 Y148.041 E8.14333
G1 X72.198 Y147.319 E8.18146
G1 X72.083 Y146.957 E8.20041
G1 X71.962 Y146.397 E8.22899
G1 X71.868 Y145.646 E8.26675
G1 X71.815 Y145.042 E8.297
G1 X71.802 Y144.412 E8.32844
G1 X71.8 Y115.617 E9.76503
G1 X71.81 Y114.862 E9.8027
G1 X71.861 Y113.651 E9.86317
G1 X71.905 Y112.85 E9.90319
G1 X71.979 Y110.097 E10.04059
G1 X71.975 Y107.377 E10.17629
G1 X71.892 Y104.582 E10.3158
G1 X71.821 Y103.258 E10.38195
G1 X71.803 Y102.742 E10.40771
G1 X71.8 Y73.738 E11.85472
G1 X71.81 Y73.067 E11.8882
G1 X71.847 Y72.529 E11.91511
G1 X71.89 Y72.162 E11.93354
G1 X72.007 Y71.601 E11.96213
G1 X72.171 Y71.063 E11.99019
G1 X72.41 Y70.487 E12.0213
G1 X72.733 Y69.883 E12.05548
G1 X73.124 Y69.311 E12.09004
G1 X73.597 Y68.774 E12.12574
G1 X74.083 Y68.333 E12.15849
G1 X74.515 Y68.006 E12.18552
G1 X75.077 Y67.664 E12.21834
G1 X75.654 Y67.391 E12.25018
G1 X76.307 Y67.165 E12.28466
G1 X76.917 Y67.025 E12.31588
G1 X77.566 Y66.945 E12.34851
G1 X78.611 Y66.923 E12.40065
G1 X139.652 Y66.922 E15.446
G1 X140.297 Y66.931 E15.47818
G1 X140.858 Y66.989 E15.50632
G1 F1500 E9.00632
;MESH:SchachtelDeckel.stl
G0 F3600 X141.001 Y69.587
G0 X140.735 Y70.845
G0 X141.512 Y71.381
G0 X141.569 Y71.3
;TYPE:WALL-INNER
G1 F1500 E15.50632
G1 F1650 X141.602 Y71.323 E15.50833
G1 X141.939 Y71.697 E15.53344
G1 X142.165 Y72.089 E15.55602
G1 X142.33 Y72.567 E15.58125
G1 X142.394 Y73.096 E15.60783
G1 X142.4 Y102.873 E17.09341
G1 X142.349 Y103.363 E17.11799
G1 X142.202 Y103.84 E17.14289
G1 X141.936 Y104.317 E17.17014
G1 X141.601 Y104.688 E17.19508
G1 X141.198 Y104.981 E17.21994
G1 X140.741 Y105.185 E17.2449
G1 X140.251 Y105.289 E17.2699
G1 X77.749 Y105.289 E20.38813
G1 X77.259 Y105.185 E20.41312
G1 X76.805 Y104.983 E20.43791
G1 X76.447 Y104.722 E20.46002
G1 X76.36 Y104.646 E20.46578
G1 X76.058 Y104.31 E20.48832
G1 X75.812 Y103.884 E20.51286
G1 X75.656 Y103.401 E20.53819
G1 X75.6 Y102.871 E20.56477
G1 X75.6 Y73.14 E22.04806
G1 X75.657 Y72.607 E22.0748
G1 X75.812 Y72.126 E22.10002
G1 X76.058 Y71.701 E22.12451
G1 X76.359 Y71.366 E22.14698
G1 X76.452 Y71.284 E22.15317
G1 X76.802 Y71.03 E22.17474
G1 X77.259 Y70.826 E22.19971
G1 X77.749 Y70.722 E22.2247
G1 X140.251 Y70.722 E25.34294
G1 X140.741 Y70.826 E25.36793
G1 X141.195 Y71.028 E25.39272
G1 X141.569 Y71.3 E25.41579
G0 F3600 X141.512 Y71.381
G0 X139.342 Y87.287
G0 X139.341 Y88.725
G0 X140.124 Y89.935
G0 X140.156 Y89.841
G1 F1650 X140.999 Y89.577 E25.45987
G1 X140.999 Y86.434 E25.61667
G1 X140.156 Y86.17 E25.66074
G1 X139.529 Y87.079 E25.71583
G1 X139.38 Y87.298 E25.72905
G1 X139.379 Y88.714 E25.79969
G1 X140.156 Y89.841 E25.86799
G0 F3600 X140.318 Y89.371
;TYPE:WALL-OUTER
G1 F1650 X140.599 Y89.283 E25.88268
G1 X140.599 Y89.113 E25.89116
G1 X140.599 Y86.898 E26.00167
G1 X140.599 Y86.728 E26.01015
G1 X140.318 Y86.64 E26.02484
G1 X140.222 Y86.779 E26.03219
G1 X139.859 Y87.305 E26.06408
G1 X139.78 Y87.421 E26.07108
G1 X139.779 Y88.59 E26.1294
G1 X140.222 Y89.231 E26.16828
G1 X140.318 Y89.371 E26.17567
G0 F3600 X140.509 Y89.312
G0 X140.657 Y89.789
G0 X141.145 Y71.114
G0 X141.398 Y70.681
G1 F1650 X141.804 Y70.976 E26.20071
G1 X141.872 Y71.026 E26.20492
G1 X142.266 Y71.462 E26.23424
G1 X142.53 Y71.92 E26.26061
G1 X142.722 Y72.478 E26.29005
G1 X142.794 Y73.073 E26.31995
G1 X142.8 Y102.895 E27.80778
G1 X142.743 Y103.442 E27.83521
G1 X142.572 Y103.998 E27.86424
G1 X142.263 Y104.552 E27.89588
G1 X141.872 Y104.985 E27.92499
G1 X141.398 Y105.33 E27.95424
G1 X140.865 Y105.567 E27.98334
G1 X140.292 Y105.689 E28.01257
G1 X77.708 Y105.689 E31.1349
G1 X77.135 Y105.567 E31.16412
G1 X76.602 Y105.33 E31.19323
G1 X76.196 Y105.035 E31.21826
G1 X76.079 Y104.931 E31.22607
G1 X75.734 Y104.548 E31.25179
G1 X75.443 Y104.044 E31.28083
G1 X75.263 Y103.488 E31.30998
G1 X75.2 Y102.894 E31.33978
G1 X75.2 Y73.117 E32.82536
G1 X75.263 Y72.523 E32.85516
G1 X75.443 Y71.966 E32.88437
G1 X75.734 Y71.463 E32.91336
G1 X76.078 Y71.081 E32.93901
G1 X76.195 Y70.977 E32.94682
G1 X76.602 Y70.681 E32.97192
G1 X77.135 Y70.444 E33.00103
G1 X77.708 Y70.322 E33.03025
G1 X140.292 Y70.322 E36.15258
G1 X140.865 Y70.444 E36.18181
G1 X141.398 Y70.681 E36.21091
G0 F3600 X141.56 Y70.798
G0 X140.997 Y71.367
;TYPE:SKIN
G1 F1650 X141.34 Y71.616 E36.23206
G1 X141.622 Y71.927 E36.253
G1 X141.808 Y72.251 E36.27164
G1 X141.946 Y72.653 E36.29285
G1 X142.004 Y73.127 E36.31667
G1 X142.01 Y102.852 E37.79966
G1 X141.965 Y103.289 E37.82157
G1 X141.843 Y103.681 E37.84206
G1 X141.614 Y104.092 E37.86553
G1 X141.343 Y104.392 E37.8857
G1 X141.002 Y104.641 E37.90676
G1 X140.619 Y104.811 E37.92767
G1 X140.207 Y104.899 E37.94869
G1 X77.792 Y104.899 E41.06259
G1 X77.38 Y104.811 E41.0836
G1 X77 Y104.642 E41.10435
G1 X76.696 Y104.42 E41.12313
G1 X76.632 Y104.365 E41.12734
G1 X76.375 Y104.08 E41.14649
G1 X76.169 Y103.722 E41.16709
G1 X76.04 Y103.322 E41.18806
G1 X75.99 Y102.848 E41.21184
G1 X75.99 Y73.163 E42.69283
G1 X76.041 Y72.686 E42.71677
G1 X76.169 Y72.288 E42.73762
G1 X76.375 Y71.931 E42.75819
G1 X76.637 Y71.64 E42.77772
G1 X76.696 Y71.588 E42.78165
G1 X76.994 Y71.373 E42.79998
G1 X77.381 Y71.2 E42.82113
G1 X77.793 Y71.112 E42.84215
G1 X140.208 Y71.112 E45.95604
G1 X140.62 Y71.2 E45.97706
G1 X140.997 Y71.367 E45.99763
G0 F3600 X139.998 Y85.712
G1 F1650 X139.207 Y86.859 E46.06715
G1 X138.99 Y87.177 E46.08635
G1 X138.989 Y88.835 E46.16907
G1 X139.998 Y90.299 E46.25778
G1 X141.389 Y89.864 E46.33049
G1 X141.389 Y86.147 E46.51593
G1 X139.998 Y85.712 E46.58864
G0 F3600 X140.338 Y71.324
G1 F1650 X141.777 Y72.764 E46.69021
G0 F3600 X141.823 Y73.375
G1 F1650 X139.739 Y71.291 E46.83724
G0 F3600 X139.174 Y71.291
G1 F1650 X141.823 Y73.941 E47.02418
G0 F3600 X141.823 Y74.507
G1 F1650 X138.608 Y71.291 E47.25105
G0 F3600 X138.042 Y71.291
G1 F1650 X141.823 Y75.072 E47.51782
G0 F3600 X141.823 Y75.638
G1 F1650 X137.477 Y71.291 E47.82449
G0 F3600 X136.911 Y71.291
G1 F1650 X141.823 Y76.204 E48.17109
G0 F3600 X141.823 Y76.769
G1 F1650 X136.345 Y71.291 E48.5576
G0 F3600 X135.78 Y71.291
G1 F1650 X141.824 Y77.336 E48.98407
G0 F3600 X141.824 Y77.901
G1 F1650 X135.214 Y71.291 E49.45044
G0 F3600 X134.648 Y71.291
G1 F1650 X141.824 Y78.467 E49.95674
G0 F3600 X141.824 Y79.033
G1 F1650 X134.083 Y71.291 E50.50295
G0 F3600 X133.517 Y71.291
G1 F1650 X141.824 Y79.599 E51.08909
G0 F3600 X141.824 Y80.164
G1 F1650 X132.951 Y71.291 E51.71513
G0 F3600 X132.385 Y71.291
G1 F1650 X141.825 Y80.731 E52.38117
G0 F3600 X141.825 Y81.296
G1 F1650 X131.82 Y71.291 E53.08708
G0 F3600 X131.254 Y71.291
G1 F1650 X141.825 Y81.862 E53.83292
G0 F3600 X141.825 Y82.428
G1 F1650 X130.688 Y71.291 E54.61869
G0 F3600 X130.123 Y71.291
G1 F1650 X141.825 Y82.993 E55.44433
G0 F3600 X141.825 Y83.559
G1 F1650 X129.557 Y71.291 E56.30991
G0 F3600 X128.991 Y71.291
G1 F1650 X141.825 Y84.125 E57.21541
G0 F3600 X141.825 Y84.691
G1 F1650 X128.426 Y71.291 E58.16082
G0 F3600 X127.86 Y71.291
G1 F1650 X141.825 Y85.257 E59.14616
G0 F3600 X141.825 Y85.822
G1 F1650 X127.294 Y71.291 E60.1714
G0 F3600 X126.729 Y71.291
G1 F1650 X141.399 Y85.962 E61.20649
G0 F3600 X141.568 Y86.131
G1 F1650 X141.825 Y86.388 E61.22462
G0 F3600 X141.568 Y86.696
G1 F1650 X141.825 Y86.954 E61.24279
G0 F3600 X141.568 Y87.262
G1 F1650 X141.825 Y87.52 E61.26095
G0 F3600 X141.568 Y87.828
G1 F1650 X141.826 Y88.086 E61.27916
G0 F3600 X141.568 Y88.394
G1 F1650 X141.826 Y88.652 E61.29736
G0 F3600 X141.568 Y88.959
G1 F1650 X141.826 Y89.217 E61.31556
G0 F3600 X141.568 Y89.525
G1 F1650 X141.826 Y89.783 E61.33377
G0 F3600 X141.496 Y90.018
G1 F1650 X141.826 Y90.349 E61.35709
G0 F3600 X141.826 Y90.914
G1 F1650 X141.065 Y90.153 E61.41078
G0 F3600 X140.635 Y90.289
G1 F1650 X141.826 Y91.48 E61.49481
G0 F3600 X141.827 Y92.046
G1 F1650 X140.204 Y90.424 E61.60929
G1 X140.134 Y90.354
G0 F3600 X139.109 Y89.328
G1 F1650 X121.072 Y71.291 E62.88189
G0 F3600 X121.637 Y71.291
G1 F1650 X138.808 Y88.462 E64.0934
G0 F3600 X138.809 Y87.897
G1 F1650 X122.203 Y71.291 E65.26504
G0 F3600 X122.769 Y71.291
G1 F1650 X138.809 Y87.331 E66.39675
G0 F3600 X138.952 Y86.909
G1 F1650 X123.334 Y71.291 E67.49869
G0 F3600 X123.9 Y71.291
G1 F1650 X139.183 Y86.574 E68.57699
G0 F3600 X139.413 Y86.239
G1 F1650 X124.466 Y71.291 E69.63161
G0 F3600 X125.032 Y71.291
G1 F1650 X139.645 Y85.904 E70.66264
G0 F3600 X139.876 Y85.57
G1 F1650 X125.597 Y71.291 E71.6701
G0 F3600 X126.163 Y71.291
G1 F1650 X140.574 Y85.703 E72.68691
G1 X140.644 Y85.773
G0 F3600 X141.827 Y92.612
G1 F1650 X120.506 Y71.291 E74.19122
G0 F3600 X119.94 Y71.291
G1 F1650 X141.827 Y93.178 E75.73547
G0 F3600 X141.827 Y93.743
G1 F1650 X119.375 Y71.291 E77.31958
G0 F3600 X118.809 Y71.291
G1 F1650 X141.827 Y94.309 E78.94362
G0 F3600 X141.827 Y94.875
G1 F1650 X118.243 Y71.291 E80.6076
G0 F3600 X117.678 Y71.291
G1 F1650 X141.827 Y95.441 E82.31148
G0 F3600 X141.827 Y96.007
G1 F1650 X117.112 Y71.291 E84.05529
G0 F3600 X116.546 Y71.291
G1 F1650 X141.827 Y96.573 E85.83903
G0 F3600 X141.827 Y97.138
G1 F1650 X115.981 Y71.291 E87.66264
G0 F3600 X115.415 Y71.291
G1 F1650 X141.827 Y97.704 E89.52619
G0 F3600 X141.827 Y98.27
G1 F1650 X114.849 Y71.291 E91.42967
G0 F3600 X114.284 Y71.291
G1 F1650 X141.827 Y98.835 E93.37301
G0 F3600 X141.828 Y99.402
G1 F1650 X113.718 Y71.291 E95.35636
G0 F3600 X113.152 Y71.291
G1 F1650 X141.828 Y99.967 E97.3796
G0 F3600 X141.828 Y100.533
G1 F1650 X112.586 Y71.291 E99.44279
G0 F3600 X112.021 Y71.291
G1 F1650 X141.828 Y101.099 E101.54587
G0 F3600 X141.828 Y101.664
G1 F1650 X111.455 Y71.291 E103.68885
G0 F3600 X110.889 Y71.291
G1 F1650 X141.828 Y102.23 E105.87176
G0 F3600 X141.828 Y102.796
G1 F1650 X110.324 Y71.291 E108.09457
G0 F3600 X109.758 Y71.291
G1 F1650 X141.772 Y103.305 E110.35333
G0 F3600 X141.617 Y103.716
G1 F1650 X109.192 Y71.291 E112.64109
G0 F3600 X108.627 Y71.291
G1 F1650 X141.398 Y104.062 E114.95326
G0 F3600 X141.107 Y104.337
G1 F1650 X108.061 Y71.291 E117.28484
G0 F3600 X107.495 Y71.291
G1 F1650 X140.755 Y104.551 E119.63151
G0 F3600 X140.326 Y104.687
G1 F1650 X106.93 Y71.291 E121.98778
G0 F3600 X106.364 Y71.291
G1 F1650 X139.79 Y104.718 E124.3462
G0 F3600 X139.225 Y104.718
G1 F1650 X105.798 Y71.291 E126.70465
G0 F3600 X105.233 Y71.291
G1 F1650 X138.659 Y104.718 E129.06307
G0 F3600 X138.093 Y104.718
G1 F1650 X104.667 Y71.291 E131.42149
G0 F3600 X104.101 Y71.291
G1 F1650 X137.528 Y104.718 E133.77995
G0 F3600 X136.962 Y104.718
G1 F1650 X103.535 Y71.291 E136.1384
G0 F3600 X102.97 Y71.291
G1 F1650 X136.396 Y104.718 E138.49682
G0 F3600 X135.83 Y104.718
G1 F1650 X102.404 Y71.291 E140.85524
G0 F3600 X101.838 Y71.291
G1 F1650 X135.265 Y104.718 E143.2137
G0 F3600 X134.699 Y104.718
G1 F1650 X101.273 Y71.291 E145.57212
G0 F3600 X100.707 Y71.291
G1 F1650 X134.133 Y104.718 E147.93054
G0 F3600 X133.568 Y104.718
G1 F1650 X100.141 Y71.291 E150.28899
G0 F3600 X99.576 Y71.291
G1 F1650 X133.002 Y104.718 E152.64741
G0 F3600 X132.436 Y104.718
G1 F1650 X99.01 Y71.291 E155.00583
G0 F3600 X98.444 Y71.291
G1 F1650 X131.871 Y104.718 E157.36429
G0 F3600 X131.305 Y104.718
G1 F1650 X97.879 Y71.291 E159.72271
G0 F3600 X97.313 Y71.291
G1 F1650 X130.739 Y104.718 E162.08113
G0 F3600 X130.174 Y104.718
G1 F1650 X96.747 Y71.291 E164.43959
G0 F3600 X96.182 Y71.291
G1 F1650 X129.608 Y104.718 E166.79801
G0 F3600 X129.042 Y104.718
G1 F1650 X95.616 Y71.291 E169.15643
G0 F3600 X95.05 Y71.291
G1 F1650 X128.477 Y104.718 E171.51488
G0 F3600 X127.911 Y104.718
G1 F1650 X94.485 Y71.291 E173.8733
G0 F3600 X93.919 Y71.291
G1 F1650 X127.345 Y104.718 E176.23172
G0 F3600 X126.78 Y104.718
G1 F1650 X93.353 Y71.291 E178.59018
G0 F3600 X92.787 Y71.291
G1 F1650 X126.214 Y104.718 E180.94863
G0 F3600 X125.648 Y104.718
G1 F1650 X92.222 Y71.291 E183.30705
G0 F3600 X91.656 Y71.291
G1 F1650 X125.082 Y104.718 E185.66547
G0 F3600 X124.517 Y104.718
G1 F1650 X91.09 Y71.291 E188.02393
G0 F3600 X90.525 Y71.291
G1 F1650 X123.951 Y104.718 E190.38235
G0 F3600 X123.385 Y104.718
G1 F1650 X89.959 Y71.291 E192.74077
G0 F3600 X89.393 Y71.291
G1 F1650 X122.82 Y104.718 E195.09922
G0 F3600 X122.254 Y104.718
G1 F1650 X88.828 Y71.291 E197.45764
G0 F3600 X88.262 Y71.291
G1 F1650 X121.688 Y104.718 E199.81606
G0 F3600 X121.123 Y104.718
G1 F1650 X87.696 Y71.291 E202.17452
G0 F3600 X87.131 Y71.291
G1 F1650 X120.557 Y104.718 E204.53294
G0 F3600 X119.991 Y104.718
G1 F1650 X86.565 Y71.291 E206.89136
G0 F3600 X85.999 Y71.291
G1 F1650 X119.426 Y104.718 E209.24981
G0 F3600 X118.86 Y104.718
G1 F1650 X85.434 Y71.291 E211.60823
G0 F3600 X84.868 Y71.291
G1 F1650 X118.294 Y104.718 E213.96665
G0 F3600 X117.729 Y104.718
G1 F1650 X84.302 Y71.291 E216.32511
G0 F3600 X83.736 Y71.291
G1 F1650 X117.163 Y104.718 E218.68357
G0 F3600 X116.597 Y104.718
G1 F1650 X83.171 Y71.291 E221.04199
G0 F3600 X82.605 Y71.291
G1 F1650 X116.031 Y104.718 E223.40041
G0 F3600 X115.466 Y104.718
G1 F1650 X82.039 Y71.291 E225.75886
G0 F3600 X81.474 Y71.291
G1 F1650 X114.9 Y104.718 E228.11728
G0 F3600 X114.334 Y104.718
G1 F1650 X80.908 Y71.291 E230.4757
G0 F3600 X80.342 Y71.291
G1 F1650 X113.769 Y104.718 E232.83416
G0 F3600 X113.203 Y104.718
G1 F1650 X79.777 Y71.291 E235.19258
G0 F3600 X79.211 Y71.291
G1 F1650 X112.637 Y104.718 E237.551
G0 F3600 X112.072 Y104.718
G1 F1650 X78.645 Y71.291 E239.90945
G0 F3600 X78.08 Y71.291
G1 F1650 X111.506 Y104.718 E242.26787
G0 F3600 X110.94 Y104.718
G1 F1650 X77.568 Y71.345 E244.62248
G0 F3600 X77.155 Y71.499
G1 F1650 X110.375 Y104.718 E246.9663
G0 F3600 X109.809 Y104.718
G1 F1650 X76.814 Y71.723 E249.29427
