;FLAVOR:Marlin
;TIME:15874
;Filament used: 13.2609m
;Layer height: 0.15
;MINX:61.8
;MINY:61.922
;MINZ:0.3
;MAXX:158.2
;MAXY:158.078
;MAXZ:30
;Generated with Cura_SteamEngine 4.6.1
M140 S60
M105
M190 S60
M104 S200
M105
M109 S200
M82 ;absolute extrusion mode
G21 ;metric values
G90 ;absolute positioning
M82 ;set extruder to absolute mode
M107 ;start with the fan off
G28 X0 Y0 ;move X/Y to min endstops
G28 Z0 ;move Z to min endstops
G1 Z15.0 F9000 ;move the platform down 15mm
G92 E0 ;zero the extruded length
G1 F200 E3 ;extrude 3mm of feed stock
G92 E0 ;zero the extruded length again
G1 F9000
;Put printing message on LCD screen
M117 Printing...
G92 E0
G92 E0
G1 F1500 E-6.5
;LAYER_COUNT:199
;LAYER:0
M107
G0 F3600 X150.858 Y61.989 Z0.3
;TYPE:SKIRT
G1 F1500 E0
G1 F1650 X151.475 Y62.108 E0.03135
G1 X152.107 Y62.299 E0.06429
G1 X152.655 Y62.529 E0.09394
G1 X153.227 Y62.841 E0.12645
G1 X153.743 Y63.195 E0.15766
G1 X154.242 Y63.619 E0.19033
G1 X154.642 Y64.036 E0.21916
G1 X154.94 Y64.395 E0.24244
G1 X155.318 Y64.959 E0.27631
G1 X155.491 Y65.268 E0.29398
G1 X155.769 Y65.902 E0.32852
G1 X155.928 Y66.373 E0.35332
G1 X156.058 Y66.929 E0.3818
G1 X156.146 Y67.551 E0.41315
G1 X156.177 Y67.941 E0.43266
G1 X156.193 Y68.822 E0.47662
G1 X156.199 Y94.524 E1.7589
G1 X156.24 Y97.323 E1.89856
G1 X156.355 Y100.04 E2.03423
G1 X156.549 Y102.782 E2.17137
G1 X156.819 Y105.487 E2.307
G1 X157.169 Y108.218 E2.44436
G1 X157.592 Y110.912 E2.58041
G1 X157.996 Y113.123 E2.69255
G1 X158.132 Y114.163 E2.74487
G1 X158.187 Y114.843 E2.77891
G1 X158.197 Y115.366 E2.80501
G1 X158.2 Y149.201 E4.49304
G1 X158.19 Y149.943 E4.53006
G1 X158.151 Y150.534 E4.55961
G1 X158.071 Y151.239 E4.59501
G1 X157.954 Y151.805 E4.62385
G1 X157.729 Y152.548 E4.66258
G1 X157.613 Y152.896 E4.68088
G1 X157.385 Y153.415 E4.70916
G1 X157.001 Y154.113 E4.74891
G1 X156.815 Y154.428 E4.76716
G1 X156.489 Y154.881 E4.795
G1 X156.001 Y155.446 E4.83225
G1 X155.746 Y155.726 E4.85114
G1 X155.32 Y156.115 E4.87992
G1 X154.706 Y156.581 E4.91838
G1 X154.39 Y156.806 E4.93773
G1 X153.911 Y157.084 E4.96536
G1 X153.17 Y157.433 E5.00623
G1 X152.856 Y157.57 E5.02332
G1 X152.314 Y157.748 E5.05178
G1 X151.577 Y157.919 E5.08952
G1 X151.203 Y157.995 E5.10857
G1 X150.641 Y158.056 E5.13677
G1 X149.574 Y158.077 E5.19001
G1 X70.139 Y158.078 E9.15304
G1 X69.493 Y158.069 E9.18527
G1 X68.934 Y158.012 E9.2133
G1 X68.174 Y157.866 E9.25191
G1 X67.801 Y157.783 E9.27098
G1 X67.267 Y157.611 E9.29897
G1 X66.562 Y157.314 E9.33713
G1 X66.223 Y157.161 E9.35569
G1 X65.723 Y156.875 E9.38443
G1 X65.077 Y156.424 E9.42373
G1 X64.796 Y156.217 E9.44115
G1 X64.369 Y155.834 E9.46976
G1 X63.837 Y155.265 E9.50863
G1 X63.586 Y154.98 E9.52757
G1 X63.262 Y154.537 E9.55495
G1 X62.871 Y153.891 E9.59263
G1 X62.682 Y153.557 E9.61177
G1 X62.449 Y153.041 E9.64002
G1 X62.198 Y152.319 E9.67816
G1 X62.083 Y151.957 E9.6971
G1 X61.962 Y151.397 E9.72569
G1 X61.868 Y150.646 E9.76345
G1 X61.815 Y150.042 E9.7937
G1 X61.802 Y149.413 E9.82509
G1 X61.8 Y115.616 E11.51122
G1 X61.81 Y114.862 E11.54884
G1 X61.861 Y113.653 E11.60922
G1 X61.904 Y112.871 E11.64829
G1 X61.979 Y110.113 E11.78594
G1 X61.975 Y107.394 E11.92159
G1 X61.893 Y104.599 E12.06109
G1 X61.821 Y103.257 E12.12814
G1 X61.803 Y102.742 E12.15385
G1 X61.8 Y68.738 E13.85032
G1 X61.81 Y68.067 E13.8838
G1 X61.847 Y67.529 E13.9107
G1 X61.89 Y67.162 E13.92914
G1 X62.007 Y66.601 E13.95773
G1 X62.171 Y66.063 E13.98579
G1 X62.41 Y65.487 E14.0169
G1 X62.733 Y64.883 E14.05107
G1 X63.124 Y64.311 E14.08564
G1 X63.597 Y63.774 E14.12134
G1 X64.083 Y63.333 E14.15408
G1 X64.515 Y63.006 E14.18111
G1 X65.077 Y62.664 E14.21393
G1 X65.654 Y62.391 E14.24578
G1 X66.307 Y62.165 E14.28025
G1 X66.917 Y62.025 E14.31148
G1 X67.566 Y61.945 E14.3441
G1 X68.611 Y61.923 E14.39625
G1 X149.652 Y61.922 E18.4394
G1 X150.297 Y61.931 E18.47158
G1 X150.858 Y61.989 E18.49972
G1 F1500 E11.99972
;MESH:SchachtelDeckel.stl
G0 F3600 X151.707 Y64.872
G0 X151.185 Y66.045
G0 X151.569 Y66.3
;TYPE:WALL-INNER
G1 F1500 E18.49972
G1 F1650 X151.602 Y66.323 E18.50173
G1 X151.939 Y66.697 E18.52684
G1 X152.165 Y67.089 E18.54942
G1 X152.33 Y67.567 E18.57465
G1 X152.394 Y68.096 E18.60123
G1 X152.4 Y102.873 E20.33626
G1 X152.349 Y103.363 E20.36084
G1 X152.202 Y103.84 E20.38574
G1 X151.936 Y104.317 E20.41299
G1 X151.601 Y104.688 E20.43793
G1 X151.198 Y104.981 E20.46279
G1 X150.741 Y105.185 E20.48776
G1 X150.251 Y105.289 E20.51275
G1 X67.749 Y105.289 E24.62879
G1 X67.259 Y105.185 E24.65378
G1 X66.805 Y104.983 E24.67857
G1 X66.447 Y104.722 E24.70067
G1 X66.36 Y104.646 E24.70644
G1 X66.058 Y104.31 E24.72897
G1 X65.812 Y103.884 E24.75352
G1 X65.656 Y103.401 E24.77884
G1 X65.6 Y102.871 E24.80543
G1 X65.6 Y68.14 E26.53817
G1 X65.657 Y67.607 E26.56491
G1 X65.812 Y67.126 E26.59012
G1 X66.058 Y66.701 E26.61462
G1 X66.359 Y66.366 E26.63709
G1 X66.452 Y66.284 E26.64327
G1 X66.802 Y66.03 E26.66485
G1 X67.259 Y65.826 E26.68982
G1 X67.749 Y65.722 E26.71481
G1 X150.251 Y65.722 E30.83085
G1 X150.741 Y65.826 E30.85584
G1 X151.195 Y66.028 E30.88063
G1 X151.569 Y66.3 E30.9037
G0 F3600 X151.512 Y66.381
G0 X150.124 Y83.576
G0 X150.156 Y83.67
G1 F1650 X149.38 Y84.796 E30.97193
G1 X149.379 Y86.214 E31.04267
G1 X150.156 Y87.341 E31.11097
G1 X150.999 Y87.077 E31.15504
G1 X150.999 Y83.934 E31.31184
G1 X150.156 Y83.67 E31.35592
G0 F3600 X150.124 Y83.576
G0 X149.342 Y84.785
G0 X149.341 Y86.225
G0 X150.143 Y87.378
G0 X150.318 Y86.871
;TYPE:WALL-OUTER
G1 F1650 X150.599 Y86.783 E31.37061
G1 X150.599 Y86.613 E31.37909
G1 X150.599 Y84.398 E31.48959
G1 X150.599 Y84.228 E31.49808
G1 X150.318 Y84.14 E31.51277
G1 X150.222 Y84.28 E31.52016
G1 X149.78 Y84.921 E31.559
G1 X149.779 Y86.09 E31.61733
G1 X150.222 Y86.731 E31.6562
G1 X150.318 Y86.871 E31.66359
G0 F3600 X150.509 Y86.812
G0 X150.657 Y87.289
G0 X151.145 Y66.114
G0 X151.398 Y65.681
G1 F1650 X151.804 Y65.976 E31.68863
G1 X151.872 Y66.026 E31.69284
G1 X152.266 Y66.462 E31.72216
G1 X152.53 Y66.92 E31.74853
G1 X152.722 Y67.478 E31.77797
G1 X152.794 Y68.073 E31.80788
G1 X152.8 Y102.895 E33.54515
G1 X152.743 Y103.442 E33.57259
G1 X152.572 Y103.998 E33.60161
G1 X152.263 Y104.552 E33.63326
G1 X151.872 Y104.985 E33.66237
G1 X151.398 Y105.33 E33.69161
G1 X150.865 Y105.567 E33.72072
G1 X150.292 Y105.689 E33.74994
G1 X67.708 Y105.689 E37.87008
G1 X67.135 Y105.567 E37.8993
G1 X66.602 Y105.33 E37.92841
G1 X66.196 Y105.035 E37.95344
G1 X66.079 Y104.931 E37.96125
G1 X65.734 Y104.548 E37.98697
G1 X65.443 Y104.044 E38.01601
G1 X65.263 Y103.488 E38.04516
G1 X65.2 Y102.894 E38.07496
G1 X65.2 Y68.117 E39.80999
G1 X65.263 Y67.523 E39.8398
G1 X65.443 Y66.966 E39.869
G1 X65.734 Y66.463 E39.89799
G1 X66.078 Y66.081 E39.92364
G1 X66.195 Y65.977 E39.93145
G1 X66.602 Y65.681 E39.95655
G1 X67.135 Y65.444 E39.98566
G1 X67.708 Y65.322 E40.01488
G1 X150.292 Y65.322 E44.13502
G1 X150.865 Y65.444 E44.16424
G1 X151.398 Y65.681 E44.19335
G0 F3600 X151.56 Y65.798
G0 X150.997 Y66.367
;TYPE:SKIN
G1 F1650 X151.34 Y66.616 E44.21449
G1 X151.622 Y66.927 E44.23544
G1 X151.808 Y67.251 E44.25408
G1 X151.946 Y67.653 E44.27528
G1 X152.004 Y68.127 E44.29911
G1 X152.01 Y102.852 E46.03154
G1 X151.965 Y103.289 E46.05346
G1 X151.843 Y103.681 E46.07394
G1 X151.614 Y104.092 E46.09741
G1 X151.343 Y104.392 E46.11758
G1 X151.002 Y104.641 E46.13865
G1 X150.619 Y104.811 E46.15956
G1 X150.207 Y104.899 E46.18057
G1 X67.792 Y104.899 E50.29227
G1 X67.38 Y104.811 E50.31329
G1 X67 Y104.642 E50.33404
G1 X66.696 Y104.42 E50.35282
G1 X66.632 Y104.365 E50.35703
G1 X66.375 Y104.08 E50.37618
G1 X66.169 Y103.722 E50.39678
G1 X66.04 Y103.322 E50.41775
G1 X65.99 Y102.848 E50.44153
G1 X65.99 Y68.163 E52.17197
G1 X66.041 Y67.686 E52.19591
G1 X66.169 Y67.288 E52.21676
G1 X66.375 Y66.931 E52.23733
G1 X66.637 Y66.64 E52.25686
G1 X66.696 Y66.588 E52.26079
G1 X66.994 Y66.373 E52.27912
G1 X67.381 Y66.2 E52.30027
G1 X67.793 Y66.112 E52.32129
G1 X150.208 Y66.112 E56.43299
G1 X150.62 Y66.2 E56.45401
G1 X150.997 Y66.367 E56.47458
G0 F3600 X149.998 Y83.212
G1 F1650 X148.99 Y84.675 E56.56321
G1 X148.989 Y86.335 E56.64603
G1 X149.998 Y87.799 E56.73474
G1 X151.389 Y87.364 E56.80745
G1 X151.389 Y83.647 E56.99289
G1 X149.998 Y83.212 E57.0656
G0 F3600 X150.737 Y66.45
G1 F1650 X151.658 Y67.371 E57.13059
G0 F3600 X151.818 Y68.097
G1 F1650 X150.013 Y66.291 E57.25797
G0 F3600 X149.447 Y66.291
G1 F1650 X151.824 Y68.668 E57.42568
G0 F3600 X151.824 Y69.234
G1 F1650 X148.882 Y66.291 E57.63329
G0 F3600 X148.316 Y66.291
G1 F1650 X151.824 Y69.799 E57.8808
G0 F3600 X151.824 Y70.365
G1 F1650 X147.75 Y66.291 E58.16824
G0 F3600 X147.184 Y66.291
G1 F1650 X151.824 Y70.931 E58.49562
G0 F3600 X151.824 Y71.496
G1 F1650 X146.619 Y66.291 E58.86286
G0 F3600 X146.053 Y66.291
G1 F1650 X151.825 Y72.063 E59.27011
G0 F3600 X151.825 Y72.629
G1 F1650 X145.487 Y66.291 E59.71729
G0 F3600 X144.922 Y66.291
G1 F1650 X151.825 Y73.194 E60.20433
G0 F3600 X151.825 Y73.76
G1 F1650 X144.356 Y66.291 E60.73131
G0 F3600 X143.79 Y66.291
G1 F1650 X151.825 Y74.326 E61.29822
G0 F3600 X151.825 Y74.891
G1 F1650 X143.225 Y66.291 E61.905
G0 F3600 X142.659 Y66.291
G1 F1650 X151.825 Y75.457 E62.55171
G0 F3600 X151.825 Y76.023
G1 F1650 X142.093 Y66.291 E63.23835
G0 F3600 X141.528 Y66.291
G1 F1650 X151.825 Y76.589 E63.9649
G0 F3600 X151.825 Y77.155
G1 F1650 X140.962 Y66.291 E64.73138
G0 F3600 X140.396 Y66.291
G1 F1650 X151.825 Y77.72 E65.53775
G0 F3600 X151.825 Y78.286
G1 F1650 X139.831 Y66.291 E66.38403
G0 F3600 X139.265 Y66.291
G1 F1650 X151.825 Y78.852 E67.27024
G0 F3600 X151.825 Y79.417
G1 F1650 X138.699 Y66.291 E68.19635
G0 F3600 X138.134 Y66.291
G1 F1650 X151.826 Y79.984 E69.16243
G0 F3600 X151.826 Y80.55
G1 F1650 X137.568 Y66.291 E70.16845
G0 F3600 X137.002 Y66.291
G1 F1650 X151.826 Y81.115 E71.21436
G0 F3600 X151.826 Y81.681
G1 F1650 X136.436 Y66.291 E72.30021
G0 F3600 X135.871 Y66.291
G1 F1650 X151.826 Y82.247 E73.42595
G0 F3600 X151.826 Y82.812
G1 F1650 X135.305 Y66.291 E74.5916
G0 F3600 X134.739 Y66.291
G1 F1650 X151.826 Y83.378 E75.79718
G0 F3600 X151.568 Y83.686
G1 F1650 X151.827 Y83.944 E75.81542
G0 F3600 X151.568 Y84.251
G1 F1650 X151.827 Y84.51 E75.83369
G0 F3600 X151.568 Y84.817
G1 F1650 X151.827 Y85.076 E75.85197
G0 F3600 X151.568 Y85.383
G1 F1650 X151.827 Y85.641 E75.87021
G0 F3600 X151.568 Y85.948
G1 F1650 X151.827 Y86.207 E75.88848
G0 F3600 X151.568 Y86.514
G1 F1650 X151.827 Y86.773 E75.90675
G0 F3600 X151.568 Y87.08
G1 F1650 X151.827 Y87.339 E75.92503
G0 F3600 X151.454 Y87.532
G1 F1650 X151.827 Y87.905 E75.95134
G0 F3600 X151.827 Y88.471
G1 F1650 X151.023 Y87.667 E76.00807
G0 F3600 X150.593 Y87.802
G1 F1650 X151.827 Y89.036 E76.09514
G0 F3600 X151.827 Y89.602
G1 F1650 X150.162 Y87.937 E76.21261
G1 X150.092 Y87.867
G0 F3600 X149.232 Y87.006
G1 F1650 X128.517 Y66.291 E77.67417
G0 F3600 X127.951 Y66.291
G1 F1650 X151.827 Y90.168 E79.35878
G0 F3600 X151.827 Y90.733
G1 F1650 X127.385 Y66.291 E81.0833
G0 F3600 X126.82 Y66.291
G1 F1650 X151.828 Y91.3 E82.84778
G0 F3600 X151.828 Y91.865
G1 F1650 X126.254 Y66.291 E84.65217
G0 F3600 X125.688 Y66.291
G1 F1650 X151.828 Y92.431 E86.49648
G0 F3600 X151.828 Y92.997
G1 F1650 X125.123 Y66.291 E88.3807
G0 F3600 X124.557 Y66.291
G1 F1650 X151.828 Y93.562 E90.30482
G0 F3600 X151.828 Y94.128
G1 F1650 X123.991 Y66.291 E92.26887
G0 F3600 X123.426 Y66.291
G1 F1650 X151.828 Y94.694 E94.27282
G0 F3600 X151.829 Y95.26
G1 F1650 X122.86 Y66.291 E96.31674
G0 F3600 X122.294 Y66.291
G1 F1650 X151.829 Y95.826 E98.40059
G0 F3600 X151.829 Y96.392
G1 F1650 X121.729 Y66.291 E100.52434
G0 F3600 X121.163 Y66.291
G1 F1650 X151.829 Y96.957 E102.688
G0 F3600 X151.829 Y97.523
G1 F1650 X120.597 Y66.291 E104.89158
G0 F3600 X120.032 Y66.291
G1 F1650 X151.829 Y98.089 E107.13507
G0 F3600 X151.829 Y98.654
G1 F1650 X119.466 Y66.291 E109.41845
G0 F3600 X118.9 Y66.291
G1 F1650 X151.829 Y99.221 E111.74181
G0 F3600 X151.829 Y99.786
G1 F1650 X118.335 Y66.291 E114.10502
G0 F3600 X117.769 Y66.291
G1 F1650 X151.829 Y100.352 E116.50818
G0 F3600 X151.829 Y100.918
G1 F1650 X117.203 Y66.291 E118.95126
G0 F3600 X116.637 Y66.291
G1 F1650 X151.829 Y101.483 E121.43425
G0 F3600 X151.829 Y102.049
G1 F1650 X116.072 Y66.291 E123.95713
G0 F3600 X115.506 Y66.291
G1 F1650 X151.829 Y102.615 E126.51995
G0 F3600 X151.798 Y103.149
G1 F1650 X114.94 Y66.291 E129.12048
G0 F3600 X114.375 Y66.291
G1 F1650 X151.68 Y103.597 E131.75259
G0 F3600 X151.479 Y103.961
G1 F1650 X113.809 Y66.291 E134.41041
G0 F3600 X113.243 Y66.291
G1 F1650 X151.213 Y104.261 E137.0894
G0 F3600 X150.881 Y104.495
G1 F1650 X112.678 Y66.291 E139.78486
G0 F3600 X112.112 Y66.291
G1 F1650 X150.477 Y104.656 E142.49172
G0 F3600 X149.973 Y104.718
G1 F1650 X111.546 Y66.291 E145.20295
G0 F3600 X110.981 Y66.291
G1 F1650 X149.407 Y104.718 E147.91415
G0 F3600 X148.841 Y104.718
G1 F1650 X110.415 Y66.291 E150.62535
G0 F3600 X109.849 Y66.291
G1 F1650 X148.276 Y104.718 E153.33658
G0 F3600 X147.71 Y104.718
G1 F1650 X109.284 Y66.291 E156.04778
G0 F3600 X108.718 Y66.291
G1 F1650 X147.144 Y104.718 E158.75897
G0 F3600 X146.578 Y104.718
G1 F1650 X108.152 Y66.291 E161.47017
G0 F3600 X107.587 Y66.291
G1 F1650 X146.013 Y104.718 E164.18137
G0 F3600 X145.447 Y104.718
G1 F1650 X107.021 Y66.291 E166.89256
G0 F3600 X106.455 Y66.291
G1 F1650 X144.881 Y104.718 E169.60376
G0 F3600 X144.316 Y104.718
G1 F1650 X105.889 Y66.291 E172.31499
G0 F3600 X105.324 Y66.291
G1 F1650 X143.75 Y104.718 E175.02619
G0 F3600 X143.184 Y104.718
G1 F1650 X104.758 Y66.291 E177.73739
G0 F3600 X104.192 Y66.291
G1 F1650 X142.619 Y104.718 E180.44862
G0 F3600 X142.053 Y104.718
G1 F1650 X103.627 Y66.291 E183.15982
G0 F3600 X103.061 Y66.291
G1 F1650 X141.487 Y104.718 E185.87101
G0 F3600 X140.922 Y104.718
G1 F1650 X102.495 Y66.291 E188.58225
G0 F3600 X101.93 Y66.291
G1 F1650 X140.356 Y104.718 E191.29344
G0 F3600 X139.79 Y104.718
G1 F1650 X101.364 Y66.291 E194.00464
G0 F3600 X100.798 Y66.291
G1 F1650 X139.225 Y104.718 E196.71587
G0 F3600 X138.659 Y104.718
G1 F1650 X100.233 Y66.291 E199.42707
G0 F3600 X99.667 Y66.291
G1 F1650 X138.093 Y104.718 E202.13827
G0 F3600 X137.528 Y104.718
G1 F1650 X99.101 Y66.291 E204.8495
G0 F3600 X98.536 Y66.291
G1 F1650 X136.962 Y104.718 E207.5607
G0 F3600 X136.396 Y104.718
G1 F1650 X97.97 Y66.291 E210.27189
G0 F3600 X97.404 Y66.291
G1 F1650 X135.83 Y104.718 E212.98309
G0 F3600 X135.265 Y104.718
G1 F1650 X96.838 Y66.291 E215.69432
G0 F3600 X96.273 Y66.291
G1 F1650 X134.699 Y104.718 E218.40552
G0 F3600 X134.133 Y104.718
G1 F1650 X95.707 Y66.291 E221.11672
G0 F3600 X95.141 Y66.291
G1 F1650 X133.568 Y104.718 E223.82795
G0 F3600 X133.002 Y104.718
G1 F1650 X94.576 Y66.291 E226.53915
G0 F3600 X94.01 Y66.291
G1 F1650 X132.436 Y104.718 E229.25034
G0 F3600 X131.871 Y104.718
G1 F1650 X93.444 Y66.291 E231.96158
G0 F3600 X92.879 Y66.291
G1 F1650 X131.305 Y104.718 E234.67277
G0 F3600 X130.739 Y104.718
G1 F1650 X92.313 Y66.291 E237.38397
G0 F3600 X91.747 Y66.291
G1 F1650 X130.174 Y104.718 E240.0952
G0 F3600 X129.608 Y104.718
G1 F1650 X91.182 Y66.291 E242.8064
G0 F3600 X90.616 Y66.291
G1 F1650 X129.042 Y104.718 E245.5176
G0 F3600 X128.477 Y104.718
G1 F1650 X90.05 Y66.291 E248.22883
G0 F3600 X89.485 Y66.291
G1 F1650 X127.911 Y104.718 E250.94003
G0 F3600 X127.345 Y104.718
G1 F1650 X88.919 Y66.291 E253.65122
G0 F3600 X88.353 Y66.291
G1 F1650 X126.78 Y104.718 E256.36246
G0 F3600 X126.214 Y104.718
G1 F1650 X87.788 Y66.291 E259.07365
G0 F3600 X87.222 Y66.291
G1 F1650 X125.648 Y104.718 E261.78485
G0 F3600 X125.082 Y104.718
G1 F1650 X86.656 Y66.291 E264.49605
G0 F3600 X86.09 Y66.291
G1 F1650 X124.517 Y104.718 E267.20728
G0 F3600 X123.951 Y104.718
G1 F1650 X85.525 Y66.291 E269.91848
G0 F3600 X84.959 Y66.291
G1 F1650 X123.385 Y104.718 E272.62968
G0 F3600 X122.82 Y104.718
G1 F1650 X84.393 Y66.291 E275.34091
G0 F3600 X83.828 Y66.291
G1 F1650 X122.254 Y104.718 E278.0521
G0 F3600 X121.688 Y104.718
G1 F1650 X83.262 Y66.291 E280.7633
G0 F3600 X82.696 Y66.291
G1 F1650 X121.123 Y104.718 E283.47453
G0 F3600 X120.557 Y104.718
G1 F1650 X82.131 Y66.291 E286.18573
G0 F3600 X81.565 Y66.291
G1 F1650 X119.991 Y104.718 E288.89693
G0 F3600 X119.426 Y104.718
G1 F1650 X80.999 Y66.291 E291.60816
G0 F3600 X80.434 Y66.291
G1 F1650 X118.86 Y104.718 E294.31936
