;FLAVOR:Marlin
;TIME:18990
;Filament used: 15.0886m
;Layer height: 0.15
;MINX:66.8
;MINY:41.922
;MINZ:0.3
;MAXX:153.2
;MAXY:178.078
;MAXZ:34.95
;Generated with Cura_SteamEngine 4.6.1
M140 S60
M105
M190 S60
M104 S200
M105
M109 S200
M82 ;absolute extrusion mode
G28 ;Home
G1 Z15.0 F2000 ;Move the platform
G92 E0
G92 E0
G1 F1500 E-6.5
;LAYER_COUNT:232
;LAYER:0
M107
M204 S1000
G0 F8250 X145.858 Y41.989 Z0.3
;TYPE:SKIRT
G1 F1500 E0
G1 F1650 X146.475 Y42.108 E0.03135
G1 X147.107 Y42.299 E0.06429
G1 X147.655 Y42.529 E0.09394
G1 X148.232 Y42.845 E0.12676
G1 X148.775 Y43.219 E0.15965
G1 X149.292 Y43.663 E0.19365
G1 X149.681 Y44.077 E0.222
G1 X150.063 Y44.573 E0.25323
G1 X150.407 Y45.124 E0.28564
G1 X150.713 Y45.76 E0.32085
G1 X150.921 Y46.353 E0.3522
G1 X151.057 Y46.882 E0.37945
G1 X151.099 Y47.132 E0.3921
G1 X151.125 Y47.325 E0.40181
G1 X151.159 Y47.646 E0.41792
G1 X151.177 Y47.927 E0.43197
G1 X151.194 Y48.959 E0.48346
G1 X151.199 Y94.516 E2.75631
G1 X151.239 Y97.311 E2.89576
G1 X151.355 Y100.032 E3.03164
G1 X151.548 Y102.759 E3.16803
G1 X151.819 Y105.483 E3.3046
G1 X152.168 Y108.211 E3.44181
G1 X152.589 Y110.898 E3.5775
G1 X152.996 Y113.123 E3.69035
G1 X153.022 Y113.294 E3.69898
G1 X153.146 Y114.284 E3.74876
G1 X153.186 Y114.781 E3.77363
G1 X153.199 Y115.192 E3.79415
G1 X153.2 Y115.412 E3.80512
G1 X153.2 Y169.244 E6.49081
G1 X153.19 Y169.941 E6.52559
G1 X153.182 Y170.121 E6.53458
G1 X153.151 Y170.525 E6.55479
G1 X153.069 Y171.246 E6.591
G1 X152.951 Y171.814 E6.61994
G1 X152.7 Y172.634 E6.66272
G1 X152.612 Y172.896 E6.67651
G1 X152.383 Y173.419 E6.705
G1 X151.956 Y174.191 E6.74901
G1 X151.812 Y174.432 E6.76302
G1 X151.488 Y174.881 E6.79064
G1 X150.928 Y175.528 E6.83333
G1 X150.737 Y175.735 E6.84738
G1 X150.322 Y176.112 E6.87535
G1 X149.599 Y176.659 E6.92059
G1 X149.392 Y176.805 E6.93322
G1 X148.91 Y177.086 E6.96106
G1 X148.069 Y177.479 E7.00737
G1 X147.852 Y177.572 E7.01915
G1 X147.314 Y177.748 E7.04739
G1 X146.479 Y177.94 E7.09014
G1 X146.203 Y177.995 E7.10418
G1 X145.641 Y178.056 E7.13238
G1 X144.511 Y178.078 E7.18877
G1 X75.139 Y178.078 E10.64975
G1 X74.493 Y178.069 E10.68198
G1 X73.934 Y178.012 E10.71001
G1 X73.07 Y177.844 E10.75393
G1 X72.801 Y177.783 E10.76769
G1 X72.267 Y177.611 E10.79568
G1 X71.472 Y177.275 E10.83874
G1 X71.223 Y177.161 E10.8524
G1 X70.723 Y176.875 E10.88114
G1 X69.995 Y176.365 E10.92548
G1 X69.794 Y176.215 E10.938
G1 X69.371 Y175.836 E10.96633
G1 X68.758 Y175.178 E11.0112
G1 X68.578 Y174.971 E11.02488
G1 X68.255 Y174.527 E11.05227
G1 X67.838 Y173.834 E11.09263
G1 X67.686 Y173.564 E11.10808
G1 X67.452 Y173.046 E11.13644
G1 X67.16 Y172.203 E11.18095
G1 X67.083 Y171.957 E11.19381
G1 X66.962 Y171.399 E11.2223
G1 X66.854 Y170.526 E11.26618
G1 X66.824 Y170.196 E11.28271
G1 X66.813 Y170.013 E11.29186
G1 X66.802 Y169.638 E11.31058
G1 X66.8 Y115.612 E14.00595
G1 X66.813 Y114.764 E14.04826
G1 X66.858 Y113.7 E14.10139
G1 X66.901 Y112.926 E14.14006
G1 X66.978 Y110.178 E14.27721
G1 X66.976 Y107.459 E14.41287
G1 X66.896 Y104.665 E14.55232
G1 X66.819 Y103.214 E14.62481
G1 X66.804 Y102.759 E14.64752
G1 X66.8 Y102.409 E14.66498
G1 X66.8 Y48.762 E17.34144
G1 X66.81 Y48.064 E17.37627
G1 X66.818 Y47.881 E17.38541
G1 X66.847 Y47.529 E17.40303
G1 X66.89 Y47.162 E17.42146
G1 X67.007 Y46.601 E17.45006
G1 X67.171 Y46.063 E17.47812
G1 X67.413 Y45.482 E17.50952
G1 X67.738 Y44.877 E17.54378
G1 X68.133 Y44.302 E17.57858
G1 X68.513 Y43.861 E17.60763
G1 X68.977 Y43.421 E17.63953
G1 X69.457 Y43.049 E17.66982
G1 X70.02 Y42.699 E17.7029
G1 X70.626 Y42.405 E17.7365
G1 X71.297 Y42.167 E17.77202
G1 X71.907 Y42.025 E17.80327
G1 X72.572 Y41.943 E17.8367
G1 X73.678 Y41.922 E17.89189
G1 X144.652 Y41.922 E21.43279
G1 X145.297 Y41.931 E21.46497
G1 X145.858 Y41.989 E21.49311
G1 F1500 E14.99311
;MESH:SchachtelDeckel-BrausteuerungV3.stl
G0 F8250 X148.351 Y46.614
G0 X148.571 Y47.293
G0 X148.658 Y48.017
G0 X148.664 Y102.939
G0 X148.594 Y103.613
G0 X148.361 Y104.312
G0 X145.473 Y109.268
G0 X145.473 Y110.353
G0 X147.107 Y111.244
G0 X147.828 Y111.769
G0 X148.42 Y112.426
G0 X148.857 Y113.181
G0 X149.13 Y114.02
G0 X149.23 Y115.165
G0 X149.229 Y169.854
G0 X149.134 Y170.778
G0 X148.861 Y171.619
G0 X148.42 Y172.385
G0 X147.83 Y173.041
G0 X147.249 Y173.464
G0 X145.459 Y174.278
;TYPE:WALL-INNER
G1 F1500 E21.49311
G1 F1650 X74.541 Y174.278 E25.03123
G1 X73.64 Y174.087 E25.07718
G1 X72.805 Y173.715 E25.12278
G1 X72.055 Y173.17 E25.16903
G1 X71.446 Y172.492 E25.2145
G1 X70.986 Y171.698 E25.26028
G1 X70.702 Y170.827 E25.30599
G1 X70.601 Y169.874 E25.3538
G1 X70.6 Y169.649 E25.36503
G1 X70.6 Y114.939 E28.09452
G1 X70.699 Y113.996 E28.14182
G1 X70.982 Y113.122 E28.18766
G1 X71.44 Y112.327 E28.23343
G1 X72.057 Y111.64 E28.2795
G1 X72.802 Y111.098 E28.32546
G1 X73.64 Y110.724 E28.37125
G1 X74.541 Y110.533 E28.4172
G1 X145.459 Y110.533 E31.95531
G1 X146.36 Y110.724 E32.00126
G1 X147.195 Y111.096 E32.04686
G1 X147.943 Y111.64 E32.09301
G1 X148.559 Y112.324 E32.13893
G1 X149.014 Y113.112 E32.18433
G1 X149.298 Y113.983 E32.23003
G1 X149.399 Y114.935 E32.2778
G1 X149.4 Y115.164 E32.28922
G1 X149.4 Y169.867 E35.01836
G1 X149.302 Y170.814 E35.06586
G1 X149.018 Y171.688 E35.11171
G1 X148.56 Y172.484 E35.15753
G1 X147.943 Y173.171 E35.2036
G1 X147.198 Y173.713 E35.24956
G1 X146.36 Y174.087 E35.29534
G1 X145.459 Y174.278 E35.34129
G0 F8250 X145.5 Y174.678
;TYPE:WALL-OUTER
G1 F1650 X74.5 Y174.678 E38.8835
G1 X73.516 Y174.469 E38.93368
G1 X72.602 Y174.062 E38.9836
G1 X71.789 Y173.471 E39.03375
G1 X71.12 Y172.727 E39.08366
G1 X70.619 Y171.862 E39.13353
G1 X70.308 Y170.909 E39.18355
G1 X70.201 Y169.898 E39.23427
G1 X70.2 Y169.649 E39.24669
G1 X70.2 Y114.916 E41.97733
G1 X70.305 Y113.912 E42.02769
G1 X70.614 Y112.958 E42.07772
G1 X71.113 Y112.092 E42.12759
G1 X71.785 Y111.344 E42.17775
G1 X72.602 Y110.749 E42.22818
G1 X73.516 Y110.342 E42.27809
G1 X74.5 Y110.133 E42.32828
G1 X145.5 Y110.133 E45.87049
G1 X146.484 Y110.342 E45.92067
G1 X147.398 Y110.749 E45.97059
G1 X148.211 Y111.34 E46.02073
G1 X148.883 Y112.086 E46.07083
G1 X149.381 Y112.949 E46.12054
G1 X149.692 Y113.901 E46.1705
G1 X149.799 Y114.911 E46.22117
G1 X149.8 Y115.164 E46.23379
G1 X149.8 Y169.889 E48.96404
G1 X149.695 Y170.898 E49.01465
G1 X149.386 Y171.852 E49.06468
G1 X148.887 Y172.719 E49.11458
G1 X148.215 Y173.467 E49.16475
G1 X147.398 Y174.062 E49.21517
G1 X146.484 Y174.469 E49.26509
G1 X145.5 Y174.678 E49.31528
G0 F8250 X145.3 Y174.678
G0 X145.3 Y174.238
G0 X145.417 Y173.888
;TYPE:SKIN
G1 F1650 X74.584 Y173.888 E52.84915
G1 X73.761 Y173.713 E52.89113
G1 X73.003 Y173.376 E52.93251
G1 X72.316 Y172.876 E52.9749
G1 X71.761 Y172.258 E53.01635
G1 X71.346 Y171.542 E53.05763
G1 X71.086 Y170.745 E53.09946
G1 X70.991 Y169.851 E53.14431
G1 X70.99 Y169.647 E53.15449
G1 X70.99 Y114.96 E55.88283
G1 X71.083 Y114.078 E55.92708
G1 X71.341 Y113.281 E55.96888
G1 X71.758 Y112.557 E56.01056
G1 X72.318 Y111.934 E56.05235
G1 X73.002 Y111.436 E56.09456
G1 X73.76 Y111.097 E56.13599
G1 X74.583 Y110.923 E56.17796
G1 X145.416 Y110.923 E59.71183
G1 X146.239 Y111.098 E59.75381
G1 X146.997 Y111.435 E59.79519
G1 X147.683 Y111.934 E59.83751
G1 X148.242 Y112.554 E59.87916
G1 X148.655 Y113.272 E59.92049
G1 X148.914 Y114.065 E59.96211
G1 X149.009 Y114.958 E60.00691
G1 X149.01 Y115.166 E60.01729
G1 X149.01 Y169.842 E62.74508
G1 X148.918 Y170.732 E62.78972
G1 X148.659 Y171.529 E62.83153
G1 X148.242 Y172.254 E62.87326
G1 X147.682 Y172.877 E62.91505
G1 X146.998 Y173.375 E62.95726
G1 X146.24 Y173.714 E62.99869
G1 X145.417 Y173.888 E63.04066
G1 F1500 E56.54066
G0 F8250 X145.417 Y174.168
G0 X146.303 Y173.925
G0 X147.112 Y173.564
G0 X147.83 Y173.041
G0 X148.42 Y172.385
G0 X148.861 Y171.619
G0 X149.134 Y170.778
G0 X149.229 Y169.854
G0 X149.228 Y114.946
G0 X149.13 Y114.02
G0 X148.857 Y113.181
G0 X148.42 Y112.426
G0 X147.828 Y111.769
G0 X146.612 Y110.958
G0 X146.433 Y111.36
G1 F1500 E63.04066
G1 F1650 X148.553 Y113.481 E63.19027
G0 F8250 X148.773 Y114.266
G1 F1650 X145.642 Y111.135 E63.41118
G0 F8250 X145.024 Y111.082
G1 F1650 X148.841 Y114.899 E63.68049
G0 F8250 X148.85 Y115.474
G1 F1650 X144.458 Y111.082 E63.99037
G0 F8250 X143.892 Y111.082
G1 F1650 X148.85 Y116.04 E64.34018
G0 F8250 X148.85 Y116.606
G1 F1650 X143.327 Y111.082 E64.72989
G0 F8250 X142.761 Y111.082
G1 F1650 X148.85 Y117.171 E65.15951
G0 F8250 X148.85 Y117.737
G1 F1650 X142.195 Y111.082 E65.62905
G0 F8250 X141.629 Y111.082
G1 F1650 X148.85 Y118.303 E66.13853
G0 F8250 X148.85 Y118.868
G1 F1650 X141.064 Y111.082 E66.68788
G0 F8250 X140.498 Y111.082
G1 F1650 X148.85 Y119.434 E67.27716
G0 F8250 X148.85 Y120
G1 F1650 X139.932 Y111.082 E67.90637
G0 F8250 X139.367 Y111.082
G1 F1650 X148.85 Y120.565 E68.57544
G0 F8250 X148.85 Y121.131
G1 F1650 X138.801 Y111.082 E69.28446
G0 F8250 X138.235 Y111.082
G1 F1650 X148.85 Y121.697 E70.0334
G0 F8250 X148.85 Y122.263
G1 F1650 X137.67 Y111.082 E70.82225
G0 F8250 X137.104 Y111.082
G1 F1650 X148.85 Y122.828 E71.65099
G0 F8250 X148.85 Y123.394
G1 F1650 X136.538 Y111.082 E72.51967
G0 F8250 X135.973 Y111.082
G1 F1650 X148.85 Y123.96 E73.42825
G0 F8250 X148.85 Y124.525
G1 F1650 X135.407 Y111.082 E74.37672
G0 F8250 X134.841 Y111.082
G1 F1650 X148.85 Y125.091 E75.36513
G0 F8250 X148.85 Y125.657
G1 F1650 X134.276 Y111.082 E76.39344
G0 F8250 X133.71 Y111.082
G1 F1650 X148.85 Y126.222 E77.46165
G0 F8250 X148.85 Y126.788
G1 F1650 X133.144 Y111.082 E78.56979
G0 F8250 X132.578 Y111.082
G1 F1650 X148.85 Y127.354 E79.71787
G0 F8250 X148.85 Y127.919
G1 F1650 X132.013 Y111.082 E80.90581
G0 F8250 X131.447 Y111.082
G1 F1650 X148.85 Y128.485 E82.13369
G0 F8250 X148.85 Y129.051
G1 F1650 X130.881 Y111.082 E83.4015
G0 F8250 X130.316 Y111.082
G1 F1650 X148.85 Y129.616 E84.70917
G0 F8250 X148.85 Y130.182
G1 F1650 X129.75 Y111.082 E86.05678
G0 F8250 X129.184 Y111.082
G1 F1650 X148.85 Y130.748 E87.44432
G0 F8250 X148.85 Y131.313
G1 F1650 X128.619 Y111.082 E88.87173
G0 F8250 X128.053 Y111.082
G1 F1650 X148.85 Y131.879 E90.33907
G0 F8250 X148.85 Y132.445
G1 F1650 X127.487 Y111.082 E91.84634
G0 F8250 X126.922 Y111.082
G1 F1650 X148.85 Y133.011 E93.39352
G0 F8250 X148.85 Y133.576
G1 F1650 X126.356 Y111.082 E94.98059
G0 F8250 X125.79 Y111.082
G1 F1650 X148.85 Y134.142 E96.6076
G0 F8250 X148.85 Y134.708
G1 F1650 X125.225 Y111.082 E98.27451
G0 F8250 X124.659 Y111.082
G1 F1650 X148.85 Y135.273 E99.98131
G0 F8250 X148.85 Y135.839
G1 F1650 X124.093 Y111.082 E101.72805
G0 F8250 X123.528 Y111.082
G1 F1650 X148.85 Y136.405 E103.51469
G0 F8250 X148.85 Y136.97
G1 F1650 X122.962 Y111.082 E105.34123
G0 F8250 X122.396 Y111.082
G1 F1650 X148.85 Y137.536 E107.2077
G0 F8250 X148.85 Y138.102
G1 F1650 X121.83 Y111.082 E109.11411
G0 F8250 X121.265 Y111.082
G1 F1650 X148.85 Y138.667 E111.06038
G0 F8250 X148.85 Y139.233
G1 F1650 X120.699 Y111.082 E113.04658
G0 F8250 X120.133 Y111.082
G1 F1650 X148.85 Y139.799 E115.07272
G0 F8250 X148.85 Y140.364
G1 F1650 X119.568 Y111.082 E117.13873
G0 F8250 X119.002 Y111.082
G1 F1650 X148.85 Y140.93 E119.24467
G0 F8250 X148.85 Y141.496
G1 F1650 X118.436 Y111.082 E121.39054
G0 F8250 X117.871 Y111.082
G1 F1650 X148.85 Y142.061 E123.57627
G0 F8250 X148.85 Y142.627
G1 F1650 X117.305 Y111.082 E125.80194
G0 F8250 X116.739 Y111.082
G1 F1650 X148.85 Y143.193 E128.06755
G0 F8250 X148.85 Y143.759
G1 F1650 X116.174 Y111.082 E130.37305
G0 F8250 X115.608 Y111.082
G1 F1650 X148.85 Y144.324 E132.71845
G0 F8250 X148.85 Y144.89
G1 F1650 X115.042 Y111.082 E135.10379
G0 F8250 X114.477 Y111.082
G1 F1650 X148.85 Y145.456 E137.52903
G0 F8250 X148.85 Y146.021
G1 F1650 X113.911 Y111.082 E139.99416
G0 F8250 X113.345 Y111.082
G1 F1650 X148.85 Y146.587 E142.49923
G0 F8250 X148.85 Y147.153
G1 F1650 X112.779 Y111.082 E145.04424
G0 F8250 X112.214 Y111.082
G1 F1650 X148.85 Y147.718 E147.6291
G0 F8250 X148.85 Y148.284
G1 F1650 X111.648 Y111.082 E150.25391
G0 F8250 X111.082 Y111.082
G1 F1650 X148.85 Y148.85 E152.91864
G0 F8250 X148.85 Y149.415
G1 F1650 X110.517 Y111.082 E155.62324
G0 F8250 X109.951 Y111.082
G1 F1650 X148.85 Y149.981 E158.36778
G0 F8250 X148.85 Y150.547
G1 F1650 X109.385 Y111.082 E161.15225
G0 F8250 X108.82 Y111.082
G1 F1650 X148.85 Y151.112 E163.97658
G0 F8250 X148.85 Y151.678
G1 F1650 X108.254 Y111.082 E166.84084
G0 F8250 X107.688 Y111.082
G1 F1650 X148.85 Y152.244 E169.74505
G0 F8250 X148.85 Y152.81
G1 F1650 X107.123 Y111.082 E172.68915
G0 F8250 X106.557 Y111.082
G1 F1650 X148.85 Y153.375 E175.67315
G0 F8250 X148.85 Y153.941
G1 F1650 X105.991 Y111.082 E178.69708
G0 F8250 X105.426 Y111.082
G1 F1650 X148.85 Y154.507 E181.76091
G0 F8250 X148.85 Y155.072
G1 F1650 X104.86 Y111.082 E184.86465
G0 F8250 X104.294 Y111.082
G1 F1650 X148.85 Y155.638 E188.00831
G0 F8250 X148.85 Y156.204
G1 F1650 X103.729 Y111.082 E191.19188
G0 F8250 X103.163 Y111.082
G1 F1650 X148.85 Y156.769 E194.41534
G0 F8250 X148.85 Y157.335
G1 F1650 X102.597 Y111.082 E197.67874
G0 F8250 X102.031 Y111.082
G1 F1650 X148.85 Y157.901 E200.98207
G0 F8250 X148.85 Y158.466
G1 F1650 X101.466 Y111.082 E204.32527
G0 F8250 X100.9 Y111.082
G1 F1650 X148.85 Y159.032 E207.7084
G0 F8250 X148.85 Y159.598
G1 F1650 X100.334 Y111.082 E211.13147
G0 F8250 X99.769 Y111.082
G1 F1650 X148.85 Y160.163 E214.5944
G0 F8250 X148.85 Y160.729
G1 F1650 X99.203 Y111.082 E218.09726
G0 F8250 X98.637 Y111.082
G1 F1650 X148.85 Y161.295 E221.64006
G0 F8250 X148.85 Y161.86
G1 F1650 X98.072 Y111.082 E225.22272
G0 F8250 X97.506 Y111.082
G1 F1650 X148.85 Y162.426 E228.84532
G0 F8250 X148.85 Y162.992
G1 F1650 X96.94 Y111.082 E232.50785
G0 F8250 X96.375 Y111.082
G1 F1650 X148.85 Y163.558 E236.21028
G0 F8250 X148.85 Y164.123
G1 F1650 X95.809 Y111.082 E239.95261
G0 F8250 X95.243 Y111.082
G1 F1650 X148.85 Y164.689 E243.73487
G0 F8250 X148.85 Y165.255
G1 F1650 X94.678 Y111.082 E247.55704
G0 F8250 X94.112 Y111.082
G1 F1650 X148.85 Y165.82 E251.4191
G0 F8250 X148.85 Y166.386
G1 F1650 X93.546 Y111.082 E255.32109
G0 F8250 X92.981 Y111.082
G1 F1650 X148.85 Y166.952 E259.26299
G0 F8250 X148.85 Y167.517
G1 F1650 X92.415 Y111.082 E263.24478
G0 F8250 X91.849 Y111.082
G1 F1650 X148.85 Y168.083 E267.26651
G0 F8250 X148.85 Y168.649
G1 F1650 X91.283 Y111.082 E271.32817
G0 F8250 X90.718 Y111.082
G1 F1650 X148.85 Y169.214 E275.4297
G0 F8250 X148.85 Y169.78
G1 F1650 X90.152 Y111.082 E279.57116
G0 F8250 X89.586 Y111.082
G1 F1650 X148.802 Y170.298 E283.74917
G0 F8250 X148.73 Y170.791
G1 F1650 X89.021 Y111.082 E287.96196
G0 F8250 X88.455 Y111.082
G1 F1650 X148.591 Y171.218 E292.20488
G0 F8250 X148.424 Y171.617
G1 F1650 X87.889 Y111.082 E296.47595
G0 F8250 X87.324 Y111.082
G1 F1650 X148.218 Y171.976 E300.77235
G0 F8250 X147.981 Y172.305
G1 F1650 X86.758 Y111.082 E305.09197
G0 F8250 X86.192 Y111.082
G1 F1650 X147.713 Y172.603 E309.4326
G0 F8250 X147.415 Y172.871
G1 F1650 X85.627 Y111.082 E313.79212
G0 F8250 X85.061 Y111.082
G1 F1650 X147.088 Y173.109 E318.16846
G0 F8250 X146.73 Y173.317
G1 F1650 X84.495 Y111.082 E322.55947
G0 F8250 X83.93 Y111.082
G1 F1650 X146.339 Y173.492 E326.9628
G0 F8250 X145.901 Y173.62
G1 F1650 X83.364 Y111.082 E331.37516
G0 F8250 X82.798 Y111.082
G1 F1650 X145.434 Y173.719 E335.7945
G0 F8250 X144.876 Y173.726
G1 F1650 X82.232 Y111.082 E340.21437
G0 F8250 X81.667 Y111.082
G1 F1650 X144.311 Y173.726 E344.63425
G0 F8250 X143.745 Y173.726
G1 F1650 X81.101 Y111.082 E349.05412
G0 F8250 X80.535 Y111.082
G1 F1650 X143.179 Y173.726 E353.47399
G0 F8250 X142.614 Y173.726
G1 F1650 X79.97 Y111.082 E357.89386
G0 F8250 X79.404 Y111.082
G1 F1650 X142.048 Y173.726 E362.31374
G0 F8250 X141.482 Y173.726
G1 F1650 X78.838 Y111.082 E366.73361
G0 F8250 X78.273 Y111.082
G1 F1650 X140.917 Y173.726 E371.15348
G0 F8250 X140.351 Y173.726
G1 F1650 X77.707 Y111.082 E375.57335
G0 F8250 X77.141 Y111.082
G1 F1650 X139.785 Y173.726 E379.99323
G0 F8250 X139.22 Y173.726
G1 F1650 X76.576 Y111.082 E384.4131
G0 F8250 X76.01 Y111.082
G1 F1650 X138.654 Y173.726 E388.83297
G0 F8250 X138.088 Y173.726
G1 F1650 X75.444 Y111.082 E393.25284
G0 F8250 X74.879 Y111.082
G1 F1650 X137.523 Y173.726 E397.67272
G0 F8250 X136.957 Y173.726
G1 F1650 X74.363 Y111.133 E402.08903
G0 F8250 X73.896 Y111.231
G1 F1650 X136.391 Y173.726 E406.49839
G0 F8250 X135.826 Y173.726
G1 F1650 X73.491 Y111.392 E410.89642
