;FLAVOR:Marlin
;TIME:18864
;Filament used: 14.641m
;Layer height: 0.15
;MINX:64.3
;MINY:41.922
;MINZ:0.3
;MAXX:155.7
;MAXY:178.078
;MAXZ:30
;Generated with Cura_SteamEngine 4.6.1
M140 S60
M105
M190 S60
M104 S200
M105
M109 S200
M82 ;absolute extrusion mode
G28 ;Home
G1 Z15.0 F2000 ;Move the platform
G92 E0
G92 E0
G1 F1500 E-6.5
;LAYER_COUNT:199
;LAYER:0
M107
M204 S1000
G0 F8250 X148.358 Y41.989 Z0.3
;TYPE:SKIRT
G1 F1500 E0
G1 F1650 X148.975 Y42.108 E0.03135
G1 X149.607 Y42.299 E0.06429
G1 X150.155 Y42.529 E0.09394
G1 X150.732 Y42.845 E0.12676
G1 X151.275 Y43.219 E0.15965
G1 X151.792 Y43.663 E0.19365
G1 X152.181 Y44.077 E0.222
G1 X152.563 Y44.573 E0.25323
G1 X152.907 Y45.124 E0.28564
G1 X153.213 Y45.76 E0.32085
G1 X153.421 Y46.353 E0.3522
G1 X153.557 Y46.882 E0.37945
G1 X153.599 Y47.132 E0.3921
G1 X153.625 Y47.325 E0.40181
G1 X153.659 Y47.646 E0.41792
G1 X153.677 Y47.927 E0.43197
G1 X153.694 Y48.959 E0.48346
G1 X153.699 Y94.52 E2.75651
G1 X153.739 Y97.315 E2.89596
G1 X153.855 Y100.036 E3.03184
G1 X154.048 Y102.759 E3.16803
G1 X154.319 Y105.487 E3.3048
G1 X154.668 Y108.215 E3.44201
G1 X155.085 Y110.877 E3.57644
G1 X155.495 Y113.118 E3.6901
G1 X155.522 Y113.294 E3.69898
G1 X155.634 Y114.184 E3.74373
G1 X155.657 Y114.465 E3.7578
G1 X155.7 Y115.69 E3.81895
G1 X155.7 Y169.244 E6.49077
G1 X155.69 Y169.941 E6.52555
G1 X155.682 Y170.114 E6.53419
G1 X155.649 Y170.55 E6.556
G1 X155.57 Y171.24 E6.59065
G1 X155.454 Y171.801 E6.61923
G1 X155.198 Y172.644 E6.66319
G1 X155.113 Y172.896 E6.67646
G1 X154.885 Y173.415 E6.70474
G1 X154.445 Y174.21 E6.75007
G1 X154.315 Y174.428 E6.76273
G1 X153.989 Y174.881 E6.79058
G1 X153.44 Y175.514 E6.83238
G1 X153.246 Y175.726 E6.84672
G1 X152.82 Y176.115 E6.8755
G1 X152.113 Y176.649 E6.9197
G1 X151.89 Y176.806 E6.93331
G1 X151.411 Y177.084 E6.96094
G1 X150.572 Y177.477 E7.00716
G1 X150.356 Y177.57 E7.01889
G1 X149.814 Y177.748 E7.04735
G1 X148.979 Y177.94 E7.0901
G1 X148.703 Y177.995 E7.10414
G1 X148.141 Y178.056 E7.13234
G1 X147.011 Y178.078 E7.18873
G1 X72.639 Y178.078 E10.89916
G1 X71.993 Y178.069 E10.9314
G1 X71.434 Y178.012 E10.95943
G1 X70.57 Y177.844 E11.00334
G1 X70.301 Y177.783 E11.0171
G1 X69.767 Y177.611 E11.04509
G1 X68.972 Y177.275 E11.08815
G1 X68.723 Y177.161 E11.10181
G1 X68.223 Y176.875 E11.13055
G1 X67.499 Y176.368 E11.17465
G1 X67.296 Y176.217 E11.18727
G1 X66.869 Y175.834 E11.21589
G1 X66.26 Y175.18 E11.26047
G1 X66.086 Y174.98 E11.2737
G1 X65.762 Y174.537 E11.30108
G1 X65.319 Y173.801 E11.34394
G1 X65.182 Y173.557 E11.3579
G1 X64.949 Y173.041 E11.38614
G1 X64.666 Y172.221 E11.42942
G1 X64.583 Y171.955 E11.44332
G1 X64.463 Y171.4 E11.47165
G1 X64.355 Y170.526 E11.51559
G1 X64.325 Y170.195 E11.53217
G1 X64.313 Y169.966 E11.54361
G1 X64.302 Y169.376 E11.57305
G1 X64.3 Y115.614 E14.25525
G1 X64.313 Y114.77 E14.29736
G1 X64.36 Y113.657 E14.35294
G1 X64.403 Y112.879 E14.39181
G1 X64.478 Y110.129 E14.52906
G1 X64.475 Y107.41 E14.66471
G1 X64.394 Y104.655 E14.80222
G1 X64.318 Y103.189 E14.87546
G1 X64.304 Y102.759 E14.89692
G1 X64.3 Y102.409 E14.91438
G1 X64.3 Y48.762 E17.59084
G1 X64.31 Y48.064 E17.62567
G1 X64.318 Y47.881 E17.63481
G1 X64.347 Y47.529 E17.65243
G1 X64.39 Y47.162 E17.67086
G1 X64.507 Y46.601 E17.69945
G1 X64.671 Y46.063 E17.72751
G1 X64.913 Y45.482 E17.75891
G1 X65.238 Y44.877 E17.79318
G1 X65.633 Y44.302 E17.82798
G1 X66.013 Y43.861 E17.85702
G1 X66.477 Y43.421 E17.88893
G1 X66.957 Y43.049 E17.91922
G1 X67.52 Y42.699 E17.9523
G1 X68.126 Y42.405 E17.9859
G1 X68.797 Y42.167 E18.02142
G1 X69.407 Y42.025 E18.05267
G1 X70.072 Y41.943 E18.0861
G1 X71.178 Y41.922 E18.14128
G1 X147.152 Y41.922 E21.93164
G1 X147.797 Y41.931 E21.96382
G1 X148.358 Y41.989 E21.99196
G1 F1500 E15.49196
;MESH:SchachtelDeckel-BrausteuerungV3.stl
G0 F8250 X150.851 Y46.614
G0 X151.071 Y47.293
G0 X151.158 Y48.017
G0 X151.164 Y102.939
G0 X151.094 Y103.613
G0 X150.861 Y104.312
G0 X147.973 Y109.268
G0 X147.973 Y110.353
G0 X149.606 Y111.244
G0 X150.331 Y111.77
G0 X150.916 Y112.42
G0 X151.357 Y113.184
G0 X151.629 Y114.02
G0 X151.73 Y115.144
G0 X151.729 Y169.856
G0 X151.634 Y170.778
G0 X151.361 Y171.619
G0 X150.921 Y172.384
G0 X150.333 Y173.038
G0 X149.747 Y173.466
G0 X147.959 Y174.278
;TYPE:WALL-INNER
G1 F1500 E21.99196
G1 F1650 X72.041 Y174.278 E25.77953
G1 X71.14 Y174.087 E25.82548
G1 X70.305 Y173.715 E25.87108
G1 X69.558 Y173.171 E25.91718
G1 X68.944 Y172.49 E25.96293
G1 X68.487 Y171.7 E26.00846
G1 X68.203 Y170.828 E26.05422
G1 X68.102 Y169.876 E26.10198
G1 X68.1 Y114.938 E28.84285
G1 X68.198 Y113.992 E28.8903
G1 X68.478 Y113.127 E28.93566
G1 X68.939 Y112.328 E28.98168
G1 X69.555 Y111.644 E29.0276
G1 X70.305 Y111.096 E29.07394
G1 X71.14 Y110.724 E29.11955
G1 X72.041 Y110.533 E29.1655
G1 X147.959 Y110.533 E32.95306
G1 X148.86 Y110.724 E32.99901
G1 X149.695 Y111.096 E33.04462
G1 X150.443 Y111.64 E33.09076
G1 X151.056 Y112.321 E33.13647
G1 X151.514 Y113.115 E33.1822
G1 X151.797 Y113.983 E33.22775
G1 X151.898 Y114.93 E33.27527
G1 X151.9 Y115.144 E33.28594
G1 X151.9 Y169.868 E36.01613
G1 X151.802 Y170.814 E36.06358
G1 X151.519 Y171.688 E36.10942
G1 X151.061 Y172.483 E36.15519
G1 X150.446 Y173.168 E36.20112
G1 X149.696 Y173.715 E36.24743
G1 X148.86 Y174.087 E36.29308
G1 X147.959 Y174.278 E36.33903
G0 F8250 X148 Y174.678
;TYPE:WALL-OUTER
G1 F1650 X72 Y174.678 E40.13069
G1 X71.016 Y174.469 E40.18087
G1 X70.102 Y174.062 E40.23079
G1 X69.289 Y173.471 E40.28093
G1 X68.62 Y172.728 E40.33081
G1 X68.12 Y171.863 E40.38066
G1 X67.809 Y170.91 E40.43067
G1 X67.702 Y169.899 E40.48139
G1 X67.7 Y114.916 E43.22451
G1 X67.804 Y113.912 E43.27487
G1 X68.113 Y112.959 E43.32485
G1 X68.612 Y112.093 E43.37471
G1 X69.285 Y111.345 E43.42491
G1 X70.102 Y110.749 E43.47536
G1 X71.016 Y110.342 E43.52528
G1 X72 Y110.133 E43.57547
G1 X148 Y110.133 E47.36712
G1 X148.984 Y110.342 E47.41731
G1 X149.898 Y110.749 E47.46723
G1 X150.711 Y111.34 E47.51737
G1 X151.383 Y112.086 E47.56746
G1 X151.88 Y112.948 E47.6171
G1 X152.191 Y113.901 E47.66712
G1 X152.298 Y114.905 E47.71749
G1 X152.3 Y115.144 E47.72942
G1 X152.3 Y169.89 E50.4607
G1 X152.196 Y170.898 E50.51126
G1 X151.887 Y171.852 E50.56129
G1 X151.388 Y172.718 E50.61115
G1 X150.716 Y173.466 E50.66132
G1 X149.898 Y174.062 E50.71181
G1 X148.984 Y174.469 E50.76173
G1 X148 Y174.678 E50.81192
G0 F8250 X147.8 Y174.678
G0 X147.8 Y174.238
G0 X147.916 Y173.888
;TYPE:SKIN
G1 F1650 X72.084 Y173.888 E54.59519
G1 X71.261 Y173.713 E54.63717
G1 X70.503 Y173.376 E54.67856
G1 X69.819 Y172.877 E54.7208
G1 X69.261 Y172.259 E54.76234
G1 X68.846 Y171.54 E54.80375
G1 X68.587 Y170.746 E54.84542
G1 X68.492 Y169.853 E54.89022
G1 X68.49 Y114.958 E57.62895
G1 X68.582 Y114.073 E57.67334
G1 X68.837 Y113.286 E57.71461
G1 X69.256 Y112.558 E57.75652
G1 X69.821 Y111.932 E57.79859
G1 X70.497 Y111.438 E57.84036
G1 X71.261 Y111.098 E57.88208
G1 X72.084 Y110.923 E57.92406
G1 X147.916 Y110.923 E61.70733
G1 X148.739 Y111.098 E61.74931
G1 X149.497 Y111.435 E61.79069
G1 X150.182 Y111.934 E61.83298
G1 X150.739 Y112.551 E61.87445
G1 X151.155 Y113.275 E61.9161
G1 X151.413 Y114.066 E61.95761
G1 X151.508 Y114.949 E62.00192
G1 X151.51 Y115.144 E62.01165
G1 X151.51 Y169.844 E64.74064
G1 X151.418 Y170.733 E64.78523
G1 X151.16 Y171.529 E64.82698
G1 X150.743 Y172.253 E64.86866
G1 X150.185 Y172.874 E64.91031
G1 X149.498 Y173.376 E64.95276
G1 X148.739 Y173.713 E64.9942
G1 X147.916 Y173.888 E65.03617
G1 F1500 E58.53617
G0 F8250 X147.916 Y174.168
G0 X148.805 Y173.925
G0 X149.608 Y173.567
G0 X150.333 Y173.038
G0 X150.921 Y172.384
G0 X151.361 Y171.619
G0 X151.634 Y170.778
G0 X151.729 Y169.856
G0 X151.727 Y114.936
G0 X151.629 Y114.02
G0 X151.357 Y113.184
G0 X150.916 Y112.42
G0 X149.897 Y111.381
G0 X149.638 Y111.737
G1 F1500 E65.03617
G1 F1650 X150.694 Y112.793 E65.11068
G0 F8250 X151.075 Y112.574
G0 X151.588 Y113.697
G0 X151.168 Y113.832
G1 F1650 X148.559 Y111.224 E65.29472
G0 F8250 X147.852 Y111.082
G1 F1650 X151.301 Y114.532 E65.5381
G0 F8250 X151.349 Y115.145
G1 F1650 X147.286 Y111.082 E65.82477
G0 F8250 X146.721 Y111.082
G1 F1650 X151.349 Y115.711 E66.15134
G0 F8250 X151.349 Y116.277
G1 F1650 X146.155 Y111.082 E66.51784
G0 F8250 X145.589 Y111.082
G1 F1650 X151.349 Y116.843 E66.92427
G0 F8250 X151.349 Y117.408
G1 F1650 X145.024 Y111.082 E67.37057
G0 F8250 X144.458 Y111.082
G1 F1650 X151.349 Y117.974 E67.8568
G0 F8250 X151.349 Y118.54
G1 F1650 X143.892 Y111.082 E68.38297
G0 F8250 X143.327 Y111.082
G1 F1650 X151.349 Y119.105 E68.949
G0 F8250 X151.349 Y119.671
G1 F1650 X142.761 Y111.082 E69.55496
G0 F8250 X142.195 Y111.082
G1 F1650 X151.349 Y120.237 E70.20086
G0 F8250 X151.349 Y120.802
G1 F1650 X141.629 Y111.082 E70.88666
G0 F8250 X141.064 Y111.082
G1 F1650 X151.349 Y121.368 E71.61236
G0 F8250 X151.349 Y121.934
G1 F1650 X140.498 Y111.082 E72.37799
G0 F8250 X139.932 Y111.082
G1 F1650 X151.349 Y122.499 E73.18352
G0 F8250 X151.349 Y123.065
G1 F1650 X139.367 Y111.082 E74.02895
G0 F8250 X138.801 Y111.082
G1 F1650 X151.349 Y123.631 E74.91432
G0 F8250 X151.349 Y124.196
G1 F1650 X138.235 Y111.082 E75.83958
G0 F8250 X137.67 Y111.082
G1 F1650 X151.349 Y124.762 E76.80474
G0 F8250 X151.349 Y125.328
G1 F1650 X137.104 Y111.082 E77.80984
G0 F8250 X136.538 Y111.082
G1 F1650 X151.349 Y125.893 E78.85484
G0 F8250 X151.349 Y126.459
G1 F1650 X135.973 Y111.082 E79.93973
G0 F8250 X135.407 Y111.082
G1 F1650 X151.349 Y127.025 E81.06456
G0 F8250 X151.349 Y127.591
G1 F1650 X134.841 Y111.082 E82.22933
G0 F8250 X134.276 Y111.082
G1 F1650 X151.349 Y128.156 E83.43395
G0 F8250 X151.349 Y128.722
G1 F1650 X133.71 Y111.082 E84.67851
G0 F8250 X133.144 Y111.082
G1 F1650 X151.349 Y129.288 E85.96301
G0 F8250 X151.349 Y129.853
G1 F1650 X132.578 Y111.082 E87.28741
G0 F8250 X132.013 Y111.082
G1 F1650 X151.349 Y130.419 E88.6517
G0 F8250 X151.349 Y130.985
G1 F1650 X131.447 Y111.082 E90.05593
G0 F8250 X130.881 Y111.082
G1 F1650 X151.349 Y131.55 E91.50006
G0 F8250 X151.349 Y132.116
G1 F1650 X130.316 Y111.082 E92.98408
G0 F8250 X129.75 Y111.082
G1 F1650 X151.349 Y132.682 E94.50805
G0 F8250 X151.349 Y133.247
G1 F1650 X129.184 Y111.082 E96.07191
G0 F8250 X128.619 Y111.082
G1 F1650 X151.349 Y133.813 E97.67567
G0 F8250 X151.349 Y134.379
G1 F1650 X128.053 Y111.082 E99.31936
G0 F8250 X127.487 Y111.082
G1 F1650 X151.349 Y134.944 E101.00295
G0 F8250 X151.349 Y135.51
G1 F1650 X126.922 Y111.082 E102.72645
G0 F8250 X126.356 Y111.082
G1 F1650 X151.349 Y136.076 E104.48987
G0 F8250 X151.349 Y136.642
G1 F1650 X125.79 Y111.082 E106.29323
G0 F8250 X125.225 Y111.082
G1 F1650 X151.349 Y137.207 E108.13646
G0 F8250 X151.349 Y137.773
G1 F1650 X124.659 Y111.082 E110.01962
G0 F8250 X124.093 Y111.082
G1 F1650 X151.349 Y138.339 E111.94271
G0 F8250 X151.349 Y138.904
G1 F1650 X123.528 Y111.082 E113.90567
G0 F8250 X122.962 Y111.082
G1 F1650 X151.349 Y139.47 E115.90856
G0 F8250 X151.349 Y140.036
G1 F1650 X122.396 Y111.082 E117.95138
G0 F8250 X121.83 Y111.082
G1 F1650 X151.349 Y140.601 E120.03411
G0 F8250 X151.349 Y141.167
G1 F1650 X121.265 Y111.082 E122.15673
G0 F8250 X120.699 Y111.082
G1 F1650 X151.349 Y141.733 E124.31929
G0 F8250 X151.349 Y142.298
G1 F1650 X120.133 Y111.082 E126.52175
G0 F8250 X119.568 Y111.082
G1 F1650 X151.349 Y142.864 E128.7641
G0 F8250 X151.349 Y143.43
G1 F1650 X119.002 Y111.082 E131.0464
G0 F8250 X118.436 Y111.082
G1 F1650 X151.349 Y143.995 E133.36859
G0 F8250 X151.349 Y144.561
G1 F1650 X117.871 Y111.082 E135.73067
G0 F8250 X117.305 Y111.082
G1 F1650 X151.349 Y145.127 E138.1327
G0 F8250 X151.349 Y145.692
G1 F1650 X116.739 Y111.082 E140.57462
G0 F8250 X116.174 Y111.082
G1 F1650 X151.349 Y146.258 E143.05644
G0 F8250 X151.349 Y146.824
G1 F1650 X115.608 Y111.082 E145.5782
G0 F8250 X115.042 Y111.082
G1 F1650 X151.349 Y147.39 E148.13989
G0 F8250 X151.349 Y147.955
G1 F1650 X114.477 Y111.082 E150.74144
G0 F8250 X113.911 Y111.082
G1 F1650 X151.349 Y148.521 E153.38293
G0 F8250 X151.349 Y149.087
G1 F1650 X113.345 Y111.082 E156.06435
G0 F8250 X112.779 Y111.082
G1 F1650 X151.349 Y149.652 E158.78567
G0 F8250 X151.349 Y150.218
G1 F1650 X112.214 Y111.082 E161.5469
G0 F8250 X111.648 Y111.082
G1 F1650 X151.349 Y150.784 E164.34805
G0 F8250 X151.349 Y151.349
G1 F1650 X111.082 Y111.082 E167.18911
G0 F8250 X110.517 Y111.082
G1 F1650 X151.349 Y151.915 E170.07006
G0 F8250 X151.349 Y152.481
G1 F1650 X109.951 Y111.082 E172.99095
G0 F8250 X109.385 Y111.082
G1 F1650 X151.349 Y153.046 E175.95173
G0 F8250 X151.349 Y153.612
G1 F1650 X108.82 Y111.082 E178.95242
G0 F8250 X108.254 Y111.082
G1 F1650 X151.349 Y154.178 E181.99304
G0 F8250 X151.349 Y154.743
G1 F1650 X107.688 Y111.082 E185.07356
G0 F8250 X107.123 Y111.082
G1 F1650 X151.349 Y155.309 E188.19398
G0 F8250 X151.349 Y155.875
G1 F1650 X106.557 Y111.082 E191.35433
G0 F8250 X105.991 Y111.082
G1 F1650 X151.349 Y156.441 E194.55462
G0 F8250 X151.349 Y157.006
G1 F1650 X105.426 Y111.082 E197.79477
G0 F8250 X104.86 Y111.082
G1 F1650 X151.349 Y157.572 E201.07485
G0 F8250 X151.349 Y158.138
G1 F1650 X104.294 Y111.082 E204.39487
G0 F8250 X103.729 Y111.082
G1 F1650 X151.349 Y158.703 E207.75476
G0 F8250 X151.349 Y159.269
G1 F1650 X103.163 Y111.082 E211.15457
G0 F8250 X102.597 Y111.082
G1 F1650 X151.349 Y159.835 E214.59433
G0 F8250 X151.349 Y160.4
G1 F1650 X102.031 Y111.082 E218.07398
G0 F8250 X101.466 Y111.082
G1 F1650 X151.349 Y160.966 E221.59353
G0 F8250 X151.349 Y161.532
G1 F1650 X100.9 Y111.082 E225.15301
G0 F8250 X100.334 Y111.082
G1 F1650 X151.349 Y162.097 E228.7524
G0 F8250 X151.349 Y162.663
G1 F1650 X99.769 Y111.082 E232.39168
G0 F8250 X99.203 Y111.082
G1 F1650 X151.349 Y163.229 E236.0709
G0 F8250 X151.349 Y163.794
G1 F1650 X98.637 Y111.082 E239.79001
G0 F8250 X98.072 Y111.082
G1 F1650 X151.349 Y164.36 E243.54903
G0 F8250 X151.349 Y164.926
G1 F1650 X97.506 Y111.082 E247.34798
G0 F8250 X96.94 Y111.082
G1 F1650 X151.349 Y165.491 E251.18683
G0 F8250 X151.349 Y166.057
G1 F1650 X96.375 Y111.082 E255.06558
G0 F8250 X95.809 Y111.082
G1 F1650 X151.349 Y166.623 E258.98426
G0 F8250 X151.349 Y167.189
G1 F1650 X95.243 Y111.082 E262.94287
G0 F8250 X94.678 Y111.082
G1 F1650 X151.349 Y167.754 E266.94135
G0 F8250 X151.349 Y168.32
G1 F1650 X94.112 Y111.082 E270.97977
G0 F8250 X93.546 Y111.082
G1 F1650 X151.349 Y168.886 E275.05812
G0 F8250 X151.349 Y169.451
G1 F1650 X92.981 Y111.082 E279.17633
G0 F8250 X92.415 Y111.082
G1 F1650 X151.332 Y170 E283.33328
G0 F8250 X151.279 Y170.513
G1 F1650 X91.849 Y111.082 E287.52642
G0 F8250 X91.283 Y111.082
G1 F1650 X151.172 Y170.971 E291.75191
G0 F8250 X151.033 Y171.398
G1 F1650 X90.718 Y111.082 E296.0075
G0 F8250 X90.152 Y111.082
G1 F1650 X150.837 Y171.768 E300.28919
G0 F8250 X150.632 Y172.128
G1 F1650 X89.586 Y111.082 E304.59631
G0 F8250 X89.021 Y111.082
G1 F1650 X150.368 Y172.43 E308.92471
G0 F8250 X150.1 Y172.727
G1 F1650 X88.455 Y111.082 E313.2741
G0 F8250 X87.889 Y111.082
G1 F1650 X149.778 Y172.971 E317.6407
G0 F8250 X149.451 Y173.21
G1 F1650 X87.324 Y111.082 E322.02413
G0 F8250 X86.758 Y111.082
G1 F1650 X149.066 Y173.391 E326.42033
G0 F8250 X148.672 Y173.562
G1 F1650 X86.192 Y111.082 E330.82864
G0 F8250 X85.627 Y111.082
G1 F1650 X148.205 Y173.661 E335.24389
G0 F8250 X147.705 Y173.726
G1 F1650 X85.061 Y111.082 E339.66376
G0 F8250 X84.495 Y111.082
G1 F1650 X147.139 Y173.726 E344.08363
G0 F8250 X146.574 Y173.726
G1 F1650 X83.93 Y111.082 E348.5035
G0 F8250 X83.364 Y111.082
G1 F1650 X146.008 Y173.726 E352.92338
G0 F8250 X145.442 Y173.726
G1 F1650 X82.798 Y111.082 E357.34325
G0 F8250 X82.232 Y111.082
G1 F1650 X144.876 Y173.726 E361.76312
G0 F8250 X144.311 Y173.726
G1 F1650 X81.667 Y111.082 E366.18299
G0 F8250 X81.101 Y111.082
G1 F1650 X143.745 Y173.726 E370.60287
G0 F8250 X143.179 Y173.726
G1 F1650 X80.535 Y111.082 E375.02274
G0 F8250 X79.97 Y111.082
G1 F1650 X142.614 Y173.726 E379.44261
G0 F8250 X142.048 Y173.726
G1 F1650 X79.404 Y111.082 E383.86248
G0 F8250 X78.838 Y111.082
G1 F1650 X141.482 Y173.726 E388.28236
G0 F8250 X140.917 Y173.726
G1 F1650 X78.273 Y111.082 E392.70223
G0 F8250 X77.707 Y111.082
G1 F1650 X140.351 Y173.726 E397.1221
G0 F8250 X139.785 Y173.726
G1 F1650 X77.141 Y111.082 E401.54197
G0 F8250 X76.576 Y111.082
G1 F1650 X139.22 Y173.726 E405.96185
G0 F8250 X138.654 Y173.726
G1 F1650 X76.01 Y111.082 E410.38172
