;FLAVOR:Marlin
;TIME:8226
;Filament used: 5.90301m
;Layer height: 0.15
;MINX:81.8
;MINY:66.922
;MINZ:0.3
;MAXX:138.2
;MAXY:153.078
;MAXZ:24.9
;Generated with Cura_SteamEngine 4.6.1
M140 S60
M105
M190 S60
M104 S200
M105
M109 S200
M82 ;absolute extrusion mode
G28 ;Home
G1 Z15.0 F2000 ;Move the platform
G92 E0
G92 E0
G1 F1500 E-6.5
;LAYER_COUNT:165
;LAYER:0
M107
M204 S1000
G0 F8250 X130.858 Y66.989 Z0.3
;TYPE:SKIRT
G1 F1500 E0
G1 F1650 X131.475 Y67.108 E0.03135
G1 X132.107 Y67.299 E0.06429
G1 X132.655 Y67.529 E0.09394
G1 X133.232 Y67.845 E0.12676
G1 X133.775 Y68.219 E0.15965
G1 X134.292 Y68.663 E0.19365
G1 X134.681 Y69.077 E0.222
G1 X135.063 Y69.573 E0.25323
G1 X135.407 Y70.124 E0.28564
G1 X135.713 Y70.76 E0.32085
G1 X135.921 Y71.353 E0.3522
G1 X136.057 Y71.882 E0.37945
G1 X136.099 Y72.132 E0.3921
G1 X136.125 Y72.327 E0.40191
G1 X136.16 Y72.659 E0.41857
G1 X136.177 Y72.936 E0.43241
G1 X136.194 Y73.879 E0.47947
G1 X136.198 Y94.522 E1.50935
G1 X136.239 Y97.321 E1.64901
G1 X136.354 Y100.037 E1.78463
G1 X136.548 Y102.78 E1.92182
G1 X136.818 Y105.485 E2.05745
G1 X137.168 Y108.216 E2.19481
G1 X137.594 Y110.924 E2.33157
G1 X137.901 Y112.63 E2.41805
G1 X138.021 Y113.255 E2.44981
G1 X138.05 Y113.437 E2.459
G1 X138.111 Y113.926 E2.48359
G1 X138.188 Y114.84 E2.52935
G1 X138.198 Y115.158 E2.54522
G1 X138.2 Y115.387 E2.55664
G1 X138.2 Y144.245 E3.99638
G1 X138.183 Y145.114 E4.03974
G1 X138.153 Y145.502 E4.05915
G1 X138.071 Y146.233 E4.09585
G1 X137.954 Y146.802 E4.12483
G1 X137.698 Y147.643 E4.16869
G1 X137.613 Y147.895 E4.18196
G1 X137.385 Y148.414 E4.21024
G1 X136.945 Y149.209 E4.25557
G1 X136.815 Y149.427 E4.26824
G1 X136.489 Y149.88 E4.29608
G1 X135.934 Y150.519 E4.33831
G1 X135.739 Y150.731 E4.35268
G1 X135.321 Y151.112 E4.38089
G1 X134.622 Y151.642 E4.42466
G1 X134.405 Y151.796 E4.43793
G1 X133.915 Y152.082 E4.46624
G1 X133.049 Y152.487 E4.51394
G1 X132.859 Y152.569 E4.52426
G1 X132.314 Y152.748 E4.55288
G1 X131.479 Y152.94 E4.59563
G1 X131.203 Y152.995 E4.60967
G1 X130.641 Y153.056 E4.63787
G1 X129.511 Y153.078 E4.69426
G1 X90.139 Y153.078 E6.65853
G1 X89.493 Y153.069 E6.69076
G1 X88.934 Y153.012 E6.7188
G1 X88.07 Y152.844 E6.76271
G1 X87.801 Y152.783 E6.77647
G1 X87.267 Y152.611 E6.80446
G1 X86.472 Y152.275 E6.84752
G1 X86.223 Y152.161 E6.86118
G1 X85.723 Y151.875 E6.88992
G1 X84.997 Y151.366 E6.93416
G1 X84.793 Y151.214 E6.94685
G1 X84.366 Y150.832 E6.97543
G1 X83.77 Y150.191 E7.0191
G1 X83.592 Y149.987 E7.03261
G1 X83.267 Y149.542 E7.0601
G1 X82.811 Y148.787 E7.1041
G1 X82.683 Y148.559 E7.11715
G1 X82.451 Y148.044 E7.14533
G1 X82.169 Y147.229 E7.18835
G1 X82.084 Y146.958 E7.20252
G1 X81.962 Y146.398 E7.23112
G1 X81.855 Y145.529 E7.2748
G1 X81.815 Y145.044 E7.29908
G1 X81.805 Y144.742 E7.31415
G1 X81.802 Y144.414 E7.33052
G1 X81.8 Y115.617 E8.76721
G1 X81.813 Y114.77 E8.80947
G1 X81.861 Y113.652 E8.8653
G1 X81.905 Y112.851 E8.90532
G1 X81.979 Y110.098 E9.04272
G1 X81.975 Y107.378 E9.17842
G1 X81.892 Y104.581 E9.31802
G1 X81.818 Y103.198 E9.38712
G1 X81.803 Y102.742 E9.40988
G1 X81.8 Y102.413 E9.4263
G1 X81.8 Y73.761 E10.85575
G1 X81.81 Y73.064 E10.89053
G1 X81.818 Y72.881 E10.89967
G1 X81.847 Y72.529 E10.91729
G1 X81.89 Y72.162 E10.93572
G1 X82.007 Y71.601 E10.96431
G1 X82.171 Y71.063 E10.99237
G1 X82.413 Y70.482 E11.02377
G1 X82.738 Y69.877 E11.05804
G1 X83.133 Y69.302 E11.09284
G1 X83.513 Y68.861 E11.12188
G1 X83.977 Y68.421 E11.15378
G1 X84.457 Y68.049 E11.18408
G1 X85.02 Y67.699 E11.21715
G1 X85.626 Y67.405 E11.25076
G1 X86.297 Y67.167 E11.28628
G1 X86.907 Y67.025 E11.31752
G1 X87.572 Y66.943 E11.35095
G1 X88.678 Y66.922 E11.40614
G1 X129.652 Y66.922 E13.45034
G1 X130.297 Y66.931 E13.48252
G1 X130.858 Y66.989 E13.51066
G1 F1500 E7.01066
;MESH:SchachtelDeckel-PWM.stl
G0 F8250 X133.351 Y71.614
G0 X133.571 Y72.293
G0 X133.658 Y73.017
G0 X133.664 Y102.94
G0 X133.594 Y103.613
G0 X133.361 Y104.312
G0 X130.473 Y109.268
G0 X130.473 Y110.353
G0 X132.107 Y111.244
G0 X132.827 Y111.769
G0 X133.421 Y112.427
G0 X133.856 Y113.179
G0 X134.129 Y114.018
G0 X134.229 Y114.99
G0 X134.229 Y144.858
G0 X134.134 Y145.777
G0 X133.86 Y146.622
G0 X133.424 Y147.379
G0 X132.833 Y148.037
G0 X132.246 Y148.466
G0 X130.459 Y149.278
;TYPE:WALL-INNER
G1 F1500 E13.51066
G1 F1650 X89.541 Y149.278 E15.55207
G1 X88.64 Y149.087 E15.59802
G1 X87.805 Y148.715 E15.64363
G1 X87.058 Y148.171 E15.68973
G1 X86.445 Y147.491 E15.7354
G1 X85.987 Y146.699 E15.78105
G1 X85.703 Y145.829 E15.82671
G1 X85.602 Y144.878 E15.87442
G1 X85.6 Y114.939 E17.36808
G1 X85.698 Y113.993 E17.41553
G1 X85.978 Y113.128 E17.46089
G1 X86.439 Y112.327 E17.507
G1 X87.054 Y111.645 E17.55281
G1 X87.805 Y111.096 E17.59923
G1 X88.64 Y110.724 E17.64483
G1 X89.541 Y110.533 E17.69078
G1 X130.459 Y110.533 E19.73219
G1 X131.36 Y110.724 E19.77814
G1 X132.195 Y111.096 E19.82374
G1 X132.942 Y111.64 E19.86985
G1 X133.559 Y112.325 E19.91584
G1 X134.013 Y113.11 E19.96108
G1 X134.297 Y113.982 E20.00684
G1 X134.4 Y114.98 E20.05689
G1 X134.4 Y144.87 E21.54811
G1 X134.302 Y145.813 E21.59541
G1 X134.018 Y146.691 E21.64145
G1 X133.564 Y147.478 E21.68678
G1 X132.946 Y148.167 E21.73295
G1 X132.195 Y148.715 E21.77933
G1 X131.36 Y149.087 E21.82494
G1 X130.459 Y149.278 E21.87089
G0 F8250 X130.5 Y149.678
;TYPE:WALL-OUTER
G1 F1650 X89.5 Y149.678 E23.91639
G1 X88.516 Y149.469 E23.96657
G1 X87.602 Y149.062 E24.01649
G1 X86.789 Y148.471 E24.06664
G1 X86.121 Y147.729 E24.11645
G1 X85.62 Y146.863 E24.16636
G1 X85.309 Y145.911 E24.21633
G1 X85.202 Y144.901 E24.267
G1 X85.2 Y114.917 E25.7629
G1 X85.304 Y113.913 E25.81326
G1 X85.613 Y112.96 E25.86324
G1 X86.112 Y112.093 E25.91315
G1 X86.784 Y111.346 E25.96328
G1 X87.602 Y110.749 E26.0138
G1 X88.516 Y110.342 E26.06372
G1 X89.5 Y110.133 E26.11391
G1 X130.5 Y110.133 E28.15941
G1 X131.484 Y110.342 E28.20959
G1 X132.398 Y110.749 E28.25951
G1 X133.211 Y111.34 E28.30965
G1 X133.883 Y112.087 E28.35978
G1 X134.38 Y112.947 E28.40934
G1 X134.691 Y113.9 E28.45935
G1 X134.8 Y114.958 E28.51241
G1 X134.8 Y144.892 E30.00583
G1 X134.696 Y145.897 E30.05623
G1 X134.387 Y146.851 E30.10626
G1 X133.888 Y147.716 E30.15609
G1 X133.216 Y148.465 E30.20629
G1 X132.398 Y149.062 E30.25681
G1 X131.484 Y149.469 E30.30673
G1 X130.5 Y149.678 E30.35691
G0 F8250 X130.3 Y149.678
G0 X130.3 Y149.238
G0 X130.416 Y148.888
;TYPE:SKIN
G1 F1650 X89.584 Y148.888 E32.39403
G1 X88.761 Y148.713 E32.43601
G1 X88.003 Y148.376 E32.4774
G1 X87.319 Y147.877 E32.51964
G1 X86.762 Y147.26 E32.56111
G1 X86.346 Y146.539 E32.60263
G1 X86.087 Y145.746 E32.64425
G1 X85.992 Y144.855 E32.68896
G1 X85.99 Y114.96 E34.18043
G1 X86.082 Y114.074 E34.22487
G1 X86.337 Y113.287 E34.26614
G1 X86.756 Y112.557 E34.30813
G1 X87.32 Y111.933 E34.3501
G1 X87.997 Y111.438 E34.39194
G1 X88.761 Y111.098 E34.43366
G1 X89.584 Y110.923 E34.47563
G1 X130.416 Y110.923 E36.51275
G1 X131.239 Y111.098 E36.55473
G1 X131.997 Y111.435 E36.59611
G1 X132.681 Y111.934 E36.63836
G1 X133.242 Y112.556 E36.68014
G1 X133.654 Y113.27 E36.72127
G1 X133.913 Y114.064 E36.76294
G1 X134.01 Y115.001 E36.80993
G1 X134.01 Y144.846 E38.29891
G1 X133.918 Y145.732 E38.34335
G1 X133.659 Y146.532 E38.3853
G1 X133.246 Y147.247 E38.42649
G1 X132.683 Y147.876 E38.46861
G1 X132 Y148.374 E38.51078
G1 X131.239 Y148.713 E38.55234
G1 X130.416 Y148.888 E38.59432
G1 F1500 E32.09432
G0 F8250 X130.416 Y149.168
G0 X131.305 Y148.925
G0 X132.107 Y148.567
G0 X132.833 Y148.037
G0 X133.424 Y147.379
G0 X133.86 Y146.622
G0 X134.134 Y145.777
G0 X134.229 Y144.858
G0 X134.229 Y114.99
G0 X134.129 Y114.018
G0 X133.856 Y113.179
G0 X133.421 Y112.427
G0 X133.085 Y112.055
G0 X132.262 Y111.283
G0 X132.003 Y111.638
G1 F1500 E38.59432
G1 F1650 X133.244 Y112.879 E38.68188
G0 F8250 X133.625 Y112.659
G0 X134.106 Y113.752
G0 X133.686 Y113.887
G1 F1650 X131.013 Y111.214 E38.87048
G0 F8250 X130.316 Y111.082
G1 F1650 X133.803 Y114.57 E39.11654
G0 F8250 X133.849 Y115.182
G1 F1650 X129.75 Y111.082 E39.40578
G0 F8250 X129.184 Y111.082
G1 F1650 X133.849 Y115.747 E39.73492
G0 F8250 X133.849 Y116.313
G1 F1650 X128.619 Y111.082 E40.10396
G0 F8250 X128.053 Y111.082
G1 F1650 X133.849 Y116.879 E40.51294
G0 F8250 X133.849 Y117.444
G1 F1650 X127.487 Y111.082 E40.96181
G0 F8250 X126.922 Y111.082
G1 F1650 X133.849 Y118.01 E41.45058
G0 F8250 X133.849 Y118.576
G1 F1650 X126.356 Y111.082 E41.97929
G0 F8250 X125.79 Y111.082
G1 F1650 X133.849 Y119.141 E42.54789
G0 F8250 X133.849 Y119.707
G1 F1650 X125.225 Y111.082 E43.1564
G0 F8250 X124.659 Y111.082
G1 F1650 X133.849 Y120.273 E43.80484
G0 F8250 X133.849 Y120.838
G1 F1650 X124.093 Y111.082 E44.49318
G0 F8250 X123.528 Y111.082
G1 F1650 X133.849 Y121.404 E45.22141
G0 F8250 X133.849 Y121.97
G1 F1650 X122.962 Y111.082 E45.98959
G0 F8250 X122.396 Y111.082
G1 F1650 X133.849 Y122.535 E46.79766
G0 F8250 X133.849 Y123.101
G1 F1650 X121.83 Y111.082 E47.64566
G0 F8250 X121.265 Y111.082
G1 F1650 X133.849 Y123.667 E48.53357
G0 F8250 X133.849 Y124.233
G1 F1650 X120.699 Y111.082 E49.46141
G0 F8250 X120.133 Y111.082
G1 F1650 X133.849 Y124.798 E50.42914
G0 F8250 X133.849 Y125.364
G1 F1650 X119.568 Y111.082 E51.43678
G0 F8250 X119.002 Y111.082
G1 F1650 X133.849 Y125.93 E52.48435
G0 F8250 X133.849 Y126.495
G1 F1650 X118.436 Y111.082 E53.57182
G0 F8250 X117.871 Y111.082
G1 F1650 X133.849 Y127.061 E54.69919
G0 F8250 X133.849 Y127.627
G1 F1650 X117.305 Y111.082 E55.8665
G0 F8250 X116.739 Y111.082
G1 F1650 X133.849 Y128.192 E57.0737
G0 F8250 X133.849 Y128.758
G1 F1650 X116.174 Y111.082 E58.3208
G0 F8250 X115.608 Y111.082
G1 F1650 X133.849 Y129.324 E59.60784
G0 F8250 X133.849 Y129.889
G1 F1650 X115.042 Y111.082 E60.93477
G0 F8250 X114.477 Y111.082
G1 F1650 X133.849 Y130.455 E62.30161
G0 F8250 X133.849 Y131.021
G1 F1650 X113.911 Y111.082 E63.70838
G0 F8250 X113.345 Y111.082
G1 F1650 X133.849 Y131.586 E65.15504
G0 F8250 X133.849 Y132.152
G1 F1650 X112.779 Y111.082 E66.64165
G0 F8250 X112.214 Y111.082
G1 F1650 X133.849 Y132.718 E68.16815
G0 F8250 X133.849 Y133.283
G1 F1650 X111.648 Y111.082 E69.73455
G0 F8250 X111.082 Y111.082
G1 F1650 X133.849 Y133.849 E71.34088
G0 F8250 X133.849 Y134.415
G1 F1650 X110.517 Y111.082 E72.98712
G0 F8250 X109.951 Y111.082
G1 F1650 X133.849 Y134.981 E74.67329
G0 F8250 X133.849 Y135.546
G1 F1650 X109.385 Y111.082 E76.39935
G0 F8250 X108.82 Y111.082
G1 F1650 X133.849 Y136.112 E78.16532
G0 F8250 X133.849 Y136.678
G1 F1650 X108.254 Y111.082 E79.97122
G0 F8250 X107.688 Y111.082
G1 F1650 X133.849 Y137.243 E81.81702
G0 F8250 X133.849 Y137.809
G1 F1650 X107.123 Y111.082 E83.70272
G0 F8250 X106.557 Y111.082
G1 F1650 X133.849 Y138.375 E85.62835
G0 F8250 X133.849 Y138.94
G1 F1650 X105.991 Y111.082 E87.59388
G0 F8250 X105.426 Y111.082
G1 F1650 X133.849 Y139.506 E89.59932
G0 F8250 X133.849 Y140.072
G1 F1650 X104.86 Y111.082 E91.64468
G0 F8250 X104.294 Y111.082
G1 F1650 X133.849 Y140.637 E93.72995
G0 F8250 X133.849 Y141.203
G1 F1650 X103.729 Y111.082 E95.85511
G0 F8250 X103.163 Y111.082
G1 F1650 X133.849 Y141.769 E98.02021
G0 F8250 X133.849 Y142.334
G1 F1650 X102.597 Y111.082 E100.22521
G0 F8250 X102.031 Y111.082
G1 F1650 X133.849 Y142.9 E102.47014
G0 F8250 X133.849 Y143.466
G1 F1650 X101.466 Y111.082 E104.75497
G0 F8250 X100.9 Y111.082
G1 F1650 X133.849 Y144.031 E107.0797
G0 F8250 X133.849 Y144.597
G1 F1650 X100.334 Y111.082 E109.44436
G0 F8250 X99.769 Y111.082
G1 F1650 X133.819 Y145.132 E111.84677
G0 F8250 X133.766 Y145.645
G1 F1650 X99.203 Y111.082 E114.28538
G0 F8250 X98.637 Y111.082
G1 F1650 X133.636 Y146.081 E116.75475
G0 F8250 X133.491 Y146.502
G1 F1650 X98.072 Y111.082 E119.25379
G0 F8250 X97.506 Y111.082
G1 F1650 X133.284 Y146.861 E121.77815
G0 F8250 X133.066 Y147.209
G1 F1650 X96.94 Y111.082 E124.32707
G0 F8250 X96.375 Y111.082
G1 F1650 X132.798 Y147.506 E126.89695
G0 F8250 X132.521 Y147.794
G1 F1650 X95.809 Y111.082 E129.48718
G0 F8250 X95.243 Y111.082
G1 F1650 X132.193 Y148.032 E132.0942
G0 F8250 X131.856 Y148.261
G1 F1650 X94.678 Y111.082 E134.71734
G0 F8250 X94.112 Y111.082
G1 F1650 X131.465 Y148.435 E137.3528
G0 F8250 X131.05 Y148.587
G1 F1650 X93.546 Y111.082 E139.99894
G0 F8250 X92.981 Y111.082
G1 F1650 X130.584 Y148.686 E142.65207
G0 F8250 X130.059 Y148.727
G1 F1650 X92.415 Y111.082 E145.3081
G0 F8250 X91.849 Y111.082
G1 F1650 X129.493 Y148.727 E147.96412
G0 F8250 X128.928 Y148.727
G1 F1650 X91.283 Y111.082 E150.62018
G0 F8250 X90.718 Y111.082
G1 F1650 X128.362 Y148.727 E153.2762
G0 F8250 X127.796 Y148.727
G1 F1650 X90.152 Y111.082 E155.93222
G0 F8250 X89.589 Y111.085
G1 F1650 X127.231 Y148.727 E158.58807
G0 F8250 X126.665 Y148.727
G1 F1650 X89.123 Y111.184 E161.2369
G0 F8250 X88.681 Y111.309
G1 F1650 X126.099 Y148.727 E163.87694
G0 F8250 X125.534 Y148.727
G1 F1650 X88.29 Y111.483 E166.5047
G0 F8250 X87.927 Y111.686
G1 F1650 X124.968 Y148.727 E169.11815
G0 F8250 X124.402 Y148.727
G1 F1650 X87.6 Y111.925 E171.71473
G0 F8250 X87.3 Y112.19
G1 F1650 X123.837 Y148.727 E174.29261
G0 F8250 X123.271 Y148.727
G1 F1650 X87.032 Y112.487 E176.8495
G0 F8250 X86.791 Y112.813
G1 F1650 X122.705 Y148.727 E179.38343
G0 F8250 X122.139 Y148.727
G1 F1650 X86.585 Y113.173 E181.89195
G0 F8250 X86.414 Y113.567
G1 F1650 X121.574 Y148.727 E184.37268
G0 F8250 X121.008 Y148.727
G1 F1650 X86.275 Y113.994 E186.82328
G0 F8250 X86.199 Y114.484
G1 F1650 X120.442 Y148.727 E189.23931
G0 F8250 X119.877 Y148.727
G1 F1650 X86.149 Y114.999 E191.619
G0 F8250 X86.149 Y115.565
G1 F1650 X119.311 Y148.727 E193.95876
G0 F8250 X118.745 Y148.727
G1 F1650 X86.149 Y116.13 E196.25862
G0 F8250 X86.149 Y116.696
G1 F1650 X118.18 Y148.727 E198.51858
G0 F8250 X117.614 Y148.727
G1 F1650 X86.149 Y117.262 E200.73861
G0 F8250 X86.149 Y117.828
G1 F1650 X117.048 Y148.727 E202.9187
G0 F8250 X116.483 Y148.727
G1 F1650 X86.149 Y118.393 E205.05893
G0 F8250 X86.149 Y118.959
G1 F1650 X115.917 Y148.727 E207.15922
G0 F8250 X115.351 Y148.727
G1 F1650 X86.149 Y119.525 E209.21958
G0 F8250 X86.149 Y120.09
G1 F1650 X114.786 Y148.727 E211.24007
G0 F8250 X114.22 Y148.727
G1 F1650 X86.149 Y120.656 E213.22063
G0 F8250 X86.149 Y121.222
G1 F1650 X113.654 Y148.727 E215.16126
G0 F8250 X113.089 Y148.727
G1 F1650 X86.149 Y121.787 E217.06202
G0 F8250 X86.149 Y122.353
G1 F1650 X112.523 Y148.727 E218.92285
G0 F8250 X111.957 Y148.727
G1 F1650 X86.149 Y122.919 E220.74374
G0 F8250 X86.149 Y123.484
G1 F1650 X111.391 Y148.727 E222.52474
G0 F8250 X110.826 Y148.727
G1 F1650 X86.149 Y124.05 E224.26583
G0 F8250 X86.149 Y124.616
G1 F1650 X110.26 Y148.727 E225.967
G0 F8250 X109.694 Y148.727
G1 F1650 X86.15 Y125.182 E227.62819
G0 F8250 X86.15 Y125.748
G1 F1650 X109.129 Y148.727 E229.24948
G0 F8250 X108.563 Y148.727
G1 F1650 X86.15 Y126.314 E230.83084
G0 F8250 X86.15 Y126.879
G1 F1650 X107.997 Y148.727 E232.3723
G0 F8250 X107.432 Y148.727
G1 F1650 X86.15 Y127.445 E233.87386
G0 F8250 X86.15 Y128.011
G1 F1650 X106.866 Y148.727 E235.33548
G0 F8250 X106.3 Y148.727
G1 F1650 X86.15 Y128.576 E236.75721
G0 F8250 X86.15 Y129.142
G1 F1650 X105.735 Y148.727 E238.13904
G0 F8250 X105.169 Y148.727
G1 F1650 X86.15 Y129.708 E239.48093
G0 F8250 X86.15 Y130.273
G1 F1650 X104.603 Y148.727 E240.78292
G0 F8250 X104.038 Y148.727
G1 F1650 X86.15 Y130.839 E242.04502
G0 F8250 X86.15 Y131.405
G1 F1650 X103.472 Y148.727 E243.26718
G0 F8250 X102.906 Y148.727
G1 F1650 X86.15 Y131.97 E244.44944
G0 F8250 X86.15 Y132.536
G1 F1650 X102.34 Y148.727 E245.59177
G0 F8250 X101.775 Y148.727
G1 F1650 X86.15 Y133.102 E246.6942
G0 F8250 X86.15 Y133.667
G1 F1650 X101.209 Y148.727 E247.75673
G0 F8250 X100.643 Y148.727
G1 F1650 X86.15 Y134.233 E248.77932
G0 F8250 X86.15 Y134.799
G1 F1650 X100.078 Y148.727 E249.76202
G0 F8250 X99.512 Y148.727
G1 F1650 X86.151 Y135.365 E250.70474
G0 F8250 X86.151 Y135.931
G1 F1650 X98.946 Y148.727 E251.60753
G0 F8250 X98.381 Y148.727
G1 F1650 X86.151 Y136.497 E252.47043
G0 F8250 X86.151 Y137.062
G1 F1650 X97.815 Y148.727 E253.29342
G0 F8250 X97.249 Y148.727
G1 F1650 X86.151 Y137.628 E254.07648
G0 F8250 X86.151 Y138.194
G1 F1650 X96.684 Y148.727 E254.81964
G0 F8250 X96.118 Y148.727
G1 F1650 X86.151 Y138.759 E255.5229
G0 F8250 X86.151 Y139.325
G1 F1650 X95.552 Y148.727 E256.18623
G0 F8250 X94.987 Y148.727
G1 F1650 X86.151 Y139.891 E256.80965
G0 F8250 X86.151 Y140.456
